;FLAVOR:Marlin
;TIME:8057
;Filament used: 5.67449m
;Layer height: 0.2
;Generated with Cura_SteamEngine 3.6.0
M104 S200
M105
M109 S200
M82 ;absolute extrusion mode
G28 ;Home
G1 Z15.0 F6000 ;Move the platform down 15mm
;Prime the extruder
G92 E0
G1 F200 E3
G92 E0
G92 E0
G1 F1500 E-6.5
;LAYER_COUNT:12
;LAYER:-6
M107
G0 F2400 X13.299 Y7.697 Z0.36
;TYPE:SUPPORT-INTERFACE
G1 F1500 E0
G1 F900 X13.669 Y7.133 E0.08077
G1 X14.114 Y6.545 E0.16906
G1 X14.57 Y6.025 E0.25187
G1 X15.113 Y5.488 E0.34331
G1 X15.661 Y5.022 E0.42945
G1 X16.137 Y4.667 E0.50055
G1 X16.3 Y4.555 E0.52423
G1 X16.869 Y4.198 E0.60466
G1 X17.388 Y3.915 E0.67544
G1 X17.992 Y3.633 E0.75525
G1 X18.188 Y3.552 E0.78065
G1 X18.739 Y3.346 E0.85108
G1 X19.391 Y3.149 E0.93263
G1 X19.558 Y3.107 E0.95325
G1 X20.146 Y2.98 E1.02528
G1 X20.789 Y2.883 E1.10314
G1 X20.989 Y2.861 E1.12723
G1 X21.671 Y2.812 E1.20911
G1 X22.028 Y2.8 E1.25188
G1 X68.076 Y2.805 E6.7655
G1 X68.423 Y2.818 E6.80708
G1 X69.18 Y2.878 E6.898
G1 X69.851 Y2.979 E6.97925
G1 X70.586 Y3.142 E7.0694
G1 X71.261 Y3.345 E7.15379
G1 X71.95 Y3.605 E7.24197
G1 X72.591 Y3.902 E7.32656
G1 X73.279 Y4.284 E7.42079
G1 X73.835 Y4.645 E7.50016
G1 X74.457 Y5.116 E7.59358
G1 X74.977 Y5.572 E7.67639
G1 X75.525 Y6.128 E7.76987
G1 X75.964 Y6.642 E7.8508
G1 X76.433 Y7.28 E7.94562
G1 X76.795 Y7.853 E8.02677
G1 X77.163 Y8.543 E8.1204
G1 X77.378 Y9.016 E8.18261
G1 X77.652 Y9.734 E8.27463
G1 X77.848 Y10.381 E8.35558
G1 X77.891 Y10.55 E8.37646
G1 X78.016 Y11.127 E8.44715
G1 X78.047 Y11.3 E8.46819
G1 X78.119 Y11.797 E8.52832
G1 X78.139 Y11.978 E8.55013
G1 X78.19 Y12.694 E8.63608
G1 X78.2 Y12.989 E8.67142
G1 X78.2 Y40.527 E11.96872
G1 X78.242 Y41.195 E12.04886
G1 X78.371 Y41.866 E12.13068
G1 X78.584 Y42.515 E12.21247
G1 X78.876 Y43.132 E12.2942
G1 X79.24 Y43.702 E12.37518
G1 X79.621 Y44.182 E12.44856
G1 X79.955 Y44.648 E12.51721
G1 X80.065 Y44.816 E12.54125
G1 X80.344 Y45.276 E12.60567
G1 X80.441 Y45.452 E12.62973
G1 X80.683 Y45.936 E12.69452
G1 X80.766 Y46.117 E12.71836
G1 X80.982 Y46.642 E12.78634
G1 X81.033 Y46.783 E12.80429
G1 X81.213 Y47.342 E12.87461
G1 X81.264 Y47.529 E12.89782
G1 X81.394 Y48.078 E12.96537
G1 X81.425 Y48.234 E12.98442
G1 X81.513 Y48.796 E13.05253
G1 X81.536 Y48.997 E13.07675
G1 X81.577 Y49.543 E13.14231
G1 X81.585 Y49.736 E13.16544
G1 X81.585 Y50.291 E13.23189
G1 X81.533 Y51.042 E13.32203
G1 X81.42 Y51.793 E13.41297
G1 X81.26 Y52.486 E13.49813
G1 X81.202 Y52.692 E13.52375
G1 X80.976 Y53.374 E13.60978
G1 X80.767 Y53.885 E13.67588
G1 X80.685 Y54.064 E13.69946
G1 X80.418 Y54.592 E13.7703
G1 X80.036 Y55.231 E13.85944
G1 X79.943 Y55.372 E13.87967
G1 X79.63 Y55.805 E13.94364
G1 X79.459 Y56.022 E13.97672
G1 X79.06 Y56.562 E14.05711
G1 X78.727 Y57.158 E14.13886
G1 X78.472 Y57.791 E14.22057
G1 X78.3 Y58.452 E14.30235
G1 X78.212 Y59.123 E14.38339
G1 X78.2 Y59.48 E14.42616
G1 X78.196 Y87.047 E17.72693
G1 X78.183 Y87.407 E17.77006
G1 X78.119 Y88.206 E17.86604
G1 X78.018 Y88.865 E17.94587
G1 X77.847 Y89.623 E18.03891
G1 X77.649 Y90.274 E18.12038
G1 X77.372 Y90.999 E18.21331
G1 X77.089 Y91.607 E18.29361
G1 X76.71 Y92.29 E18.38714
G1 X76.427 Y92.73 E18.44978
G1 X75.977 Y93.341 E18.54064
G1 X75.883 Y93.459 E18.5587
G1 X75.429 Y93.976 E18.64109
G1 X74.874 Y94.524 E18.73448
G1 X74.48 Y94.863 E18.79671
G1 X74.323 Y94.989 E18.82082
G1 X73.739 Y95.42 E18.90772
G1 X73.153 Y95.789 E18.99064
G1 X72.599 Y96.092 E19.06625
G1 X72.008 Y96.367 E19.1443
G1 X71.816 Y96.447 E19.1692
G1 X71.272 Y96.65 E19.23873
G1 X70.609 Y96.85 E19.32165
G1 X70.444 Y96.892 E19.34203
G1 X69.862 Y97.018 E19.41333
G1 X69.201 Y97.118 E19.49338
G1 X68.996 Y97.14 E19.51807
G1 X68.29 Y97.188 E19.6028
G1 X67.974 Y97.199 E19.64066
G1 X21.931 Y97.195 E25.15368
G1 X21.542 Y97.179 E25.2003
G1 X20.973 Y97.138 E25.26861
G1 X20.26 Y97.042 E25.35475
G1 X19.535 Y96.887 E25.44352
G1 X18.85 Y96.692 E25.5288
G1 X18.139 Y96.431 E25.61948
G1 X17.509 Y96.147 E25.70223
G1 X16.859 Y95.796 E25.79068
G1 X16.681 Y95.69 E25.81549
G1 X16.135 Y95.333 E25.8936
G1 X15.534 Y94.877 E25.98393
G1 X15.033 Y94.438 E26.06369
G1 X14.571 Y93.976 E26.14192
G1 X14.118 Y93.459 E26.22422
G1 X13.657 Y92.849 E26.31577
G1 X13.566 Y92.719 E26.33477
G1 X13.205 Y92.147 E26.41576
G1 X12.837 Y91.457 E26.5094
G1 X12.62 Y90.98 E26.57214
G1 X12.343 Y90.252 E26.66541
G1 X12.148 Y89.604 E26.74644
G1 X12.106 Y89.437 E26.76705
G1 X11.981 Y88.858 E26.83798
G1 X11.881 Y88.203 E26.91731
G1 X11.861 Y88.022 E26.93912
G1 X11.811 Y87.306 E27.02506
G1 X11.8 Y87.011 E27.06041
G1 X11.8 Y59.473 E30.35771
G1 X11.758 Y58.805 E30.43785
G1 X11.629 Y58.134 E30.51967
G1 X11.416 Y57.485 E30.60145
G1 X11.124 Y56.868 E30.68319
G1 X10.76 Y56.298 E30.76416
G1 X10.36 Y55.794 E30.84121
G1 X10.045 Y55.352 E30.9062
G1 X9.935 Y55.184 E30.93024
G1 X9.648 Y54.71 E30.99659
G1 X9.559 Y54.548 E31.01872
G1 X9.317 Y54.064 E31.08351
G1 X9.234 Y53.883 E31.10736
G1 X9.018 Y53.358 E31.17533
G1 X8.966 Y53.215 E31.19355
G1 X8.782 Y52.641 E31.26572
G1 X8.736 Y52.471 E31.28681
G1 X8.61 Y51.94 E31.35216
G1 X8.57 Y51.735 E31.37716
G1 X8.487 Y51.199 E31.44211
G1 X8.464 Y51 E31.46609
G1 X8.422 Y50.444 E31.53286
G1 X8.415 Y50.262 E31.55467
G1 X8.422 Y49.532 E31.64208
G1 X8.485 Y48.805 E31.72945
G1 X8.61 Y48.056 E31.82037
G1 X8.74 Y47.514 E31.88711
G1 X8.798 Y47.308 E31.91274
G1 X8.968 Y46.779 E31.97927
G1 X9.232 Y46.116 E32.06472
G1 X9.317 Y45.931 E32.08909
G1 X9.574 Y45.422 E32.15737
G1 X9.666 Y45.258 E32.17988
G1 X10.057 Y44.628 E32.26866
G1 X10.376 Y44.187 E32.33383
G1 X10.541 Y43.978 E32.36572
G1 X10.94 Y43.438 E32.44611
G1 X11.273 Y42.842 E32.52786
G1 X11.528 Y42.209 E32.60957
G1 X11.7 Y41.548 E32.69135
G1 X11.788 Y40.877 E32.77238
G1 X11.8 Y40.52 E32.81515
G1 X11.804 Y12.952 E36.11605
G1 X11.817 Y12.601 E36.1581
G1 X11.881 Y11.794 E36.25503
G1 X11.982 Y11.135 E36.33486
G1 X12.154 Y10.373 E36.4284
G1 X12.347 Y9.735 E36.50821
G1 X12.626 Y9.005 E36.60178
G1 X12.919 Y8.379 E36.68454
G1 X13.299 Y7.697 E36.77802
G0 F2400 X12.8 Y8.633
G1 F900 X12.8 Y91.375 E46.68526
G0 F2400 X14.4 Y93.78
G1 F900 X14.4 Y6.218 E57.16962
G0 F2400 X16 Y4.769
G1 F900 X16 Y95.23 E68.00111
G0 F2400 X17.6 Y96.188
G1 F900 X17.6 Y3.816 E79.0614
G0 F2400 X19.2 Y3.206
G1 F900 X19.2 Y96.791 E90.26694
G0 F2400 X20.8 Y97.114
G1 F900 X20.8 Y2.881 E101.55007
G0 F2400 X22.4 Y2.801
G1 F900 X22.4 Y97.195 E112.85248
G0 F2400 X24 Y97.195
G1 F900 X24 Y2.801 E124.15488
G0 F2400 X25.6 Y2.801
G1 F900 X25.6 Y97.195 E135.45729
G0 F2400 X27.2 Y97.195
G1 F900 X27.2 Y2.801 E146.7597
G0 F2400 X28.8 Y2.801
G1 F900 X28.8 Y97.195 E158.0621
G0 F2400 X30.4 Y97.195
G1 F900 X30.4 Y2.801 E169.36451
G0 F2400 X32 Y2.802
G1 F900 X32 Y97.195 E180.66679
G0 F2400 X33.6 Y97.196
G1 F900 X33.6 Y2.802 E191.9692
G0 F2400 X35.2 Y2.802
G1 F900 X35.2 Y97.196 E203.27161
G0 F2400 X36.8 Y97.196
G1 F900 X36.8 Y2.802 E214.57401
G0 F2400 X38.4 Y2.802
G1 F900 X38.4 Y97.196 E225.87642
G0 F2400 X40 Y97.196
G1 F900 X40 Y2.802 E237.17882
G0 F2400 X41.6 Y2.803
G1 F900 X41.6 Y97.196 E248.48111
G0 F2400 X43.2 Y97.196
G1 F900 X43.2 Y2.803 E259.78339
G0 F2400 X44.8 Y2.803
G1 F900 X44.8 Y97.196 E271.08568
G0 F2400 X46.4 Y97.197
G1 F900 X46.4 Y2.803 E282.38809
G0 F2400 X48 Y2.803
G1 F900 X48 Y97.197 E293.69049
G0 F2400 X49.6 Y97.197
G1 F900 X49.6 Y2.803 E304.9929
G0 F2400 X51.2 Y2.804
G1 F900 X51.2 Y97.197 E316.29518
G0 F2400 X52.8 Y97.197
G1 F900 X52.8 Y2.804 E327.59747
G0 F2400 X54.4 Y2.804
G1 F900 X54.4 Y97.197 E338.89976
G0 F2400 X56 Y97.197
G1 F900 X56 Y2.804 E350.20204
G0 F2400 X57.6 Y2.804
G1 F900 X57.6 Y97.198 E361.50445
G0 F2400 X59.2 Y97.198
G1 F900 X59.2 Y2.805 E372.80674
G0 F2400 X60.8 Y2.805
G1 F900 X60.8 Y97.198 E384.10902
G0 F2400 X62.4 Y97.198
G1 F900 X62.4 Y2.805 E395.41131
G0 F2400 X64 Y2.805
G1 F900 X64 Y97.198 E406.71359
G0 F2400 X65.6 Y97.198
G1 F900 X65.6 Y2.805 E418.01588
G0 F2400 X67.2 Y2.805
G1 F900 X67.2 Y97.198 E429.31817
G0 F2400 X68.8 Y97.154
G1 F900 X68.8 Y2.848 E440.61004
G0 F2400 X70.4 Y3.101
G1 F900 X70.4 Y96.902 E451.84144
G0 F2400 X72 Y96.371
G1 F900 X72 Y3.629 E462.94604
G0 F2400 X73.6 Y4.493
G1 F900 X73.6 Y95.508 E473.84385
G0 F2400 X75.2 Y94.203
G1 F900 X75.2 Y5.799 E484.42904
G0 F2400 X76.8 Y7.863
G1 F900 X76.8 Y92.128 E494.51863
G0 F2400 X78.4 Y58.068
G1 F900 X78.4 Y41.955 E496.44795
G0 F2400 X80 Y44.717
G1 F900 X80 Y55.286 E497.71344
G0 F2400 X11.2 Y57.028
G1 F900 X11.2 Y42.972 E499.39646
G0 F2400 X9.6 Y45.375
G1 F900 X9.6 Y54.622 E500.50366
G0 F2400 X74.276 Y4.98
;TIME_ELAPSED:293.710955
;LAYER:-5
G0 X74.276 Y4.98 Z0.66
;TYPE:SUPPORT
G1 F900 X73.833 Y4.644 E500.55914
G1 X73.278 Y4.284 E500.62515
G1 X72.59 Y3.901 E500.70372
G1 X71.949 Y3.604 E500.77421
G1 X71.26 Y3.345 E500.84765
G1 X71.214 Y3.331 E500.85245
G1 X77.667 Y9.784 E501.76304
G1 X77.847 Y10.381 E501.82526
G1 X77.89 Y10.55 E501.84266
G1 X78.015 Y11.127 E501.90157
G1 X78.046 Y11.299 E501.91901
G1 X78.093 Y11.625 E501.95187
G1 X69.375 Y2.907 E503.18207
G1 X69.179 Y2.877 E503.20186
G1 X68.421 Y2.817 E503.27773
G1 X68.075 Y2.805 E503.31227
G1 X67.858 Y2.805 E503.33393
G1 X78.199 Y13.145 E504.79308
G1 X78.199 Y14.56 E504.93427
G1 X66.444 Y2.805 E506.59303
G1 X65.03 Y2.805 E506.73412
G1 X78.199 Y15.974 E508.59241
G1 X78.199 Y17.388 E508.7335
G1 X63.616 Y2.805 E510.79132
G1 X62.202 Y2.805 E510.93241
G1 X78.199 Y18.802 E513.18975
G1 X78.199 Y20.216 E513.33084
G1 X60.787 Y2.804 E515.78787
G1 X59.372 Y2.804 E515.92905
G1 X78.199 Y21.631 E518.58575
G1 X78.199 Y23.045 E518.72684
G1 X57.958 Y2.804 E521.58306
G1 X56.544 Y2.804 E521.72415
G1 X78.199 Y24.459 E524.7799
G1 X78.199 Y25.873 E524.92099
G1 X55.13 Y2.804 E528.17628
G1 X53.715 Y2.803 E528.31747
G1 X78.199 Y27.287 E531.77243
G1 X78.199 Y28.702 E531.91362
G1 X52.301 Y2.803 E535.56817
G1 X50.886 Y2.803 E535.70936
G1 X78.199 Y30.116 E539.56352
G1 X78.199 Y31.53 E539.70461
G1 X49.472 Y2.803 E543.7583
G1 X48.057 Y2.802 E543.89949
G1 X78.199 Y32.944 E548.15285
G1 X78.199 Y34.359 E548.29404
G1 X46.643 Y2.802 E552.747
G1 X45.229 Y2.802 E552.88809
G1 X78.199 Y35.773 E557.54059
G1 X78.199 Y37.187 E557.68168
G1 X43.815 Y2.802 E562.5337
G1 X42.4 Y2.802 E562.67489
G1 X78.199 Y38.601 E567.72652
G1 X78.199 Y40.015 E567.86761
G1 X40.986 Y2.802 E573.11876
G1 X39.571 Y2.802 E573.25995
G1 X78.307 Y41.537 E578.72595
G1 X78.37 Y41.866 E578.75937
G1 X78.582 Y42.514 E578.8274
G1 X78.874 Y43.132 E578.8956
G1 X79.239 Y43.702 E578.96314
G1 X79.62 Y44.181 E579.02421
G1 X79.83 Y44.474 E579.06018
G1 X38.157 Y2.802 E584.94062
G1 X36.743 Y2.802 E585.08171
G1 X81.179 Y47.238 E591.35211
G1 X81.212 Y47.342 E591.363
G1 X81.263 Y47.528 E591.38224
G1 X81.392 Y48.078 E591.43861
G1 X81.424 Y48.233 E591.4544
G1 X81.512 Y48.796 E591.51126
G1 X81.535 Y48.996 E591.53135
G1 X81.536 Y49.009 E591.53265
G1 X35.329 Y2.802 E598.05296
G1 X33.914 Y2.801 E598.19414
G1 X81.573 Y50.46 E604.91934
G1 X81.532 Y51.041 E604.97746
G1 X81.429 Y51.73 E605.04697
G1 X32.5 Y2.801 E611.95138
G1 X31.085 Y2.801 E612.09257
G1 X81.145 Y52.861 E619.15658
G1 X80.975 Y53.373 E619.21041
G1 X80.766 Y53.885 E619.26559
G0 F2400 X80.762 Y53.892
G1 F900 X29.671 Y2.801 E626.47508
G1 X28.256 Y2.8 E626.61627
G1 X80.279 Y54.823 E633.95728
G1 X80.035 Y55.231 E634.00471
G1 X79.942 Y55.372 E634.02157
G1 X79.721 Y55.679 E634.05931
G1 X26.842 Y2.8 E641.52111
G1 X25.428 Y2.8 E641.6622
G1 X79.115 Y56.487 E649.23801
G1 X79.059 Y56.562 E649.24735
G1 X78.726 Y57.158 E649.31548
G1 X78.624 Y57.411 E649.34269
G1 X24.014 Y2.8 E657.04883
G1 X22.599 Y2.8 E657.19002
G1 X78.294 Y58.495 E665.04918
G1 X78.21 Y59.123 E665.1124
G1 X78.199 Y59.479 E665.14794
G1 X78.199 Y59.814 E665.18137
G1 X21.228 Y2.843 E673.22059
G1 X20.988 Y2.86 E673.2446
G1 X20.788 Y2.882 E673.26467
G1 X20.145 Y2.979 E673.32956
G1 X19.985 Y3.015 E673.34592
G1 X78.199 Y61.229 E681.56055
G1 X78.199 Y62.643 E681.70164
G1 X18.864 Y3.308 E690.07445
G1 X18.738 Y3.346 E690.08758
G1 X18.187 Y3.551 E690.14624
G1 X17.991 Y3.633 E690.16744
G1 X17.844 Y3.702 E690.18364
G1 X78.199 Y64.057 E698.70038
G1 X78.198 Y65.471 E698.84147
G1 X16.906 Y4.178 E707.49051
G1 X16.868 Y4.198 E707.49479
G1 X16.298 Y4.555 E707.5619
G1 X16.136 Y4.666 E707.5815
G1 X16.047 Y4.734 E707.59267
G1 X78.198 Y66.885 E716.36285
G1 X78.198 Y68.299 E716.50394
G1 X15.261 Y5.361 E725.3851
G1 X15.112 Y5.488 E725.40464
G1 X14.569 Y6.024 E725.48077
G1 X14.54 Y6.055 E725.485
G1 X78.198 Y69.713 E734.46783
G1 X78.198 Y71.127 E734.60892
G1 X13.898 Y6.827 E743.68235
G1 X13.668 Y7.133 E743.72054
G1 X13.319 Y7.662 E743.78378
G1 X78.198 Y72.541 E752.93891
G1 X78.198 Y73.955 E753.08
G1 X12.823 Y8.58 E762.30512
G1 X12.625 Y9.005 E762.3519
G1 X12.406 Y9.577 E762.41301
G1 X78.198 Y75.369 E771.69697
G1 X78.197 Y76.783 E771.83806
G1 X12.085 Y10.67 E781.16725
G1 X11.981 Y11.135 E781.2148
G1 X11.88 Y11.793 E781.28122
G1 X11.873 Y11.873 E781.28923
G1 X78.197 Y78.197 E790.64827
G1 X78.197 Y79.611 E790.78936
G1 X11.803 Y13.217 E800.15827
G1 X11.803 Y14.632 E800.29946
G1 X78.197 Y81.025 E809.6683
G1 X78.196 Y82.439 E809.80939
G1 X11.803 Y16.046 E819.17815
G1 X11.803 Y17.459 E819.31914
G1 X78.196 Y83.853 E828.68798
G1 X78.196 Y85.267 E828.82907
G1 X11.803 Y18.874 E838.19784
G1 X11.803 Y20.288 E838.33893
G1 X78.196 Y86.682 E847.70777
G1 X78.196 Y87.046 E847.74409
G1 X78.182 Y87.406 E847.78004
G1 X78.133 Y88.032 E847.84269
G1 X11.802 Y21.701 E857.20272
G1 X11.802 Y23.116 E857.3439
G1 X77.933 Y89.246 E866.67563
G1 X77.847 Y89.622 E866.71412
G1 X77.648 Y90.273 E866.78204
G1 X77.62 Y90.348 E866.79003
G1 X11.802 Y24.53 E876.07766
G1 X11.801 Y25.943 E876.21865
G1 X77.208 Y91.351 E885.44836
G1 X77.089 Y91.606 E885.47643
G1 X76.718 Y92.275 E885.55277
G1 X11.801 Y27.357 E894.71333
G1 X11.8 Y28.771 E894.85442
G1 X76.144 Y93.114 E903.93398
G1 X75.976 Y93.34 E903.96208
G1 X75.882 Y93.458 E903.97713
G1 X75.504 Y93.889 E904.03433
G1 X11.8 Y30.185 E913.02365
G1 X11.8 Y31.599 E913.16474
G1 X74.793 Y94.592 E922.05374
G1 X74.48 Y94.861 E922.09492
G1 X74.322 Y94.988 E922.11514
G1 X74.007 Y95.22 E922.15418
G1 X11.8 Y33.013 E930.93226
G1 X11.8 Y34.427 E931.07335
G1 X73.157 Y95.785 E939.73155
G1 X72.598 Y96.091 E939.79514
G1 X72.223 Y96.265 E939.83639
G1 X11.8 Y35.841 E948.3628
G1 X11.799 Y37.255 E948.50389
G1 X71.211 Y96.667 E956.88756
G1 X70.608 Y96.849 E956.95041
G1 X70.444 Y96.891 E956.9673
G1 X70.096 Y96.966 E957.00283
G1 X11.799 Y38.669 E965.22916
G1 X11.799 Y40.083 E965.37025
G1 X68.863 Y97.147 E973.4226
G1 X68.29 Y97.186 E973.4799
G1 X67.973 Y97.198 E973.51156
G1 X67.498 Y97.197 E973.55895
G1 X11.717 Y41.415 E981.43033
G1 X11.7 Y41.547 E981.44361
G1 X11.527 Y42.207 E981.51169
G1 X11.403 Y42.516 E981.54491
G1 X66.084 Y97.197 E989.26099
G1 X64.67 Y97.197 E989.40208
G1 X10.927 Y43.454 E996.98579
G1 X10.54 Y43.977 E997.05071
G1 X10.376 Y44.185 E997.07714
G1 X10.32 Y44.262 E997.08664
G1 X63.256 Y97.197 E1004.55641
G1 X61.842 Y97.197 E1004.6975
G1 X9.755 Y45.111 E1012.04747
G1 X9.666 Y45.257 E1012.06453
G1 X9.574 Y45.421 E1012.0833
G1 X9.316 Y45.93 E1012.14024
G1 X9.267 Y46.036 E1012.15189
G1 X60.427 Y97.197 E1019.37119
G1 X59.013 Y97.196 E1019.51228
G1 X8.877 Y47.06 E1026.58701
G1 X8.797 Y47.306 E1026.61282
G1 X8.739 Y47.513 E1026.63427
G1 X8.609 Y48.054 E1026.68979
G1 X8.587 Y48.185 E1026.70304
G1 X57.598 Y97.196 E1033.61902
G1 X56.184 Y97.196 E1033.76011
G1 X8.429 Y49.441 E1040.49886
G1 X8.421 Y49.531 E1040.50787
G1 X8.414 Y50.261 E1040.58072
G1 X8.421 Y50.443 E1040.59889
G1 X8.454 Y50.881 E1040.64272
G1 X54.77 Y97.196 E1047.17834
G1 X53.356 Y97.196 E1047.31942
G1 X8.775 Y52.615 E1053.61029
G1 X8.782 Y52.639 E1053.61278
G1 X8.966 Y53.214 E1053.67302
G1 X9.017 Y53.357 E1053.68817
G1 X9.234 Y53.882 E1053.74485
G1 X9.317 Y54.063 E1053.76472
G1 X9.558 Y54.547 E1053.81867
G1 X9.647 Y54.708 E1053.83703
G1 X9.935 Y55.183 E1053.89245
G1 X9.948 Y55.203 E1053.89483
G1 X51.941 Y97.196 E1059.8205
G1 X50.527 Y97.196 E1059.96159
G1 X11.667 Y58.336 E1065.44515
G1 X11.757 Y58.804 E1065.49271
G1 X11.8 Y59.471 E1065.5594
G1 X11.799 Y59.882 E1065.60041
G1 X49.112 Y97.196 E1070.86575
G1 X47.698 Y97.196 E1071.00684
G1 X11.799 Y61.296 E1076.07264
G1 X11.799 Y62.711 E1076.21383
G1 X46.284 Y97.196 E1081.08004
G1 X44.869 Y97.195 E1081.22123
G1 X11.799 Y64.125 E1085.88776
G1 X11.799 Y65.539 E1086.02885
