;FLAVOR:Marlin
;TIME:16645
;Filament used: 11.4576m
;Layer height: 0.2
;Generated with Cura_SteamEngine 3.6.0
M104 S200
M105
M109 S200
M82 ;absolute extrusion mode
G28 ;Home
G1 Z15.0 F6000 ;Move the platform down 15mm
;Prime the extruder
G92 E0
G1 F200 E3
G92 E0
G92 E0
G1 F1500 E-6.5
;LAYER_COUNT:158
;LAYER:-6
M107
G0 F2400 X13.144 Y7.961 Z0.36
;TYPE:SUPPORT-INTERFACE
G1 F1500 E0
G1 F900 X13.495 Y7.391 E0.08015
G1 X13.615 Y7.213 E0.10586
G1 X14.037 Y6.645 E0.19058
G1 X14.489 Y6.117 E0.2738
G1 X14.601 Y5.997 E0.29346
G1 X15.007 Y5.592 E0.36212
G1 X15.155 Y5.455 E0.38627
G1 X15.652 Y5.032 E0.46442
G1 X15.796 Y4.919 E0.48633
G1 X16.26 Y4.583 E0.55493
G1 X16.413 Y4.481 E0.57695
G1 X16.966 Y4.143 E0.65455
G1 X17.128 Y4.052 E0.6768
G1 X17.659 Y3.783 E0.74807
G1 X17.807 Y3.715 E0.76757
G1 X18.426 Y3.46 E0.84773
G1 X18.603 Y3.395 E0.87031
G1 X19.144 Y3.22 E0.93839
G1 X19.316 Y3.172 E0.95977
G1 X19.967 Y3.017 E1.0399
G1 X20.149 Y2.981 E1.06211
G1 X20.686 Y2.897 E1.12719
G1 X20.895 Y2.873 E1.15238
G1 X21.73 Y2.811 E1.25264
G1 X21.971 Y2.802 E1.28152
G1 X67.952 Y2.8 E6.78712
G1 X68.343 Y2.814 E6.83397
G1 X69.124 Y2.874 E6.92776
G1 X69.304 Y2.895 E6.94945
G1 X69.868 Y2.983 E7.0178
G1 X70.694 Y3.174 E7.11931
G1 X70.853 Y3.218 E7.13907
G1 X71.4 Y3.396 E7.20794
G1 X71.578 Y3.462 E7.23068
G1 X72.193 Y3.715 E7.3103
G1 X72.341 Y3.783 E7.3298
G1 X72.872 Y4.052 E7.40108
G1 X73.034 Y4.143 E7.42332
G1 X73.587 Y4.481 E7.50093
G1 X73.74 Y4.583 E7.52295
G1 X74.204 Y4.919 E7.59154
G1 X74.348 Y5.032 E7.61346
G1 X74.845 Y5.455 E7.6916
G1 X74.993 Y5.592 E7.71575
G1 X75.4 Y5.997 E7.7845
G1 X75.511 Y6.117 E7.80407
G1 X75.963 Y6.645 E7.88729
G1 X76.385 Y7.213 E7.97202
G1 X76.496 Y7.377 E7.99573
G1 X76.856 Y7.961 E8.07788
G1 X76.932 Y8.096 E8.09643
G1 X77.203 Y8.626 E8.1677
G1 X77.267 Y8.765 E8.18602
G1 X77.533 Y9.404 E8.2689
G1 X77.594 Y9.571 E8.29019
G1 X77.774 Y10.124 E8.35982
G1 X77.816 Y10.272 E8.37824
G1 X77.982 Y10.96 E8.46299
G1 X78.007 Y11.084 E8.47813
G1 X78.101 Y11.667 E8.54884
G1 X78.121 Y11.834 E8.56898
G1 X78.188 Y12.687 E8.67143
G1 X78.2 Y13.041 E8.71384
G1 X78.2 Y35.703 E11.42731
G1 X78.242 Y36.371 E11.50745
G1 X78.371 Y37.042 E11.58926
G1 X78.584 Y37.691 E11.67105
G1 X78.876 Y38.308 E11.75278
G1 X79.244 Y38.883 E11.83453
G1 X79.682 Y39.407 E11.9163
G1 X80.182 Y39.871 E11.99797
G1 X80.743 Y40.273 E12.08061
G1 X81.629 Y40.717 E12.19927
G1 X81.779 Y40.776 E12.21857
G1 X82.114 Y40.937 E12.26308
G1 X82.624 Y41.234 E12.33374
G1 X82.806 Y41.351 E12.35965
G1 X83.34 Y41.733 E12.43827
G1 X83.503 Y41.86 E12.46301
G1 X83.946 Y42.234 E12.53243
G1 X84.077 Y42.353 E12.55362
G1 X84.559 Y42.831 E12.6349
G1 X84.711 Y42.994 E12.66158
G1 X85.063 Y43.402 E12.7261
G1 X85.184 Y43.553 E12.74927
G1 X85.587 Y44.103 E12.83091
G1 X85.716 Y44.293 E12.85841
G1 X86.006 Y44.762 E12.92444
G1 X86.092 Y44.914 E12.94535
G1 X86.425 Y45.561 E13.03248
G1 X86.5 Y45.722 E13.05374
G1 X86.723 Y46.257 E13.12314
G1 X86.793 Y46.444 E13.14705
G1 X87.007 Y47.102 E13.2299
G1 X87.057 Y47.278 E13.25181
G1 X87.198 Y47.861 E13.32363
G1 X87.226 Y48.001 E13.34072
G1 X87.338 Y48.706 E13.4262
G1 X87.36 Y48.886 E13.44791
G1 X87.407 Y49.48 E13.51925
G1 X87.413 Y49.648 E13.53938
G1 X87.412 Y50.347 E13.62308
G1 X87.403 Y50.565 E13.6492
G1 X87.356 Y51.138 E13.71804
G1 X87.335 Y51.312 E13.73903
G1 X87.191 Y52.173 E13.84355
G1 X87.005 Y52.908 E13.93433
G1 X86.721 Y53.75 E14.04073
G1 X86.493 Y54.292 E14.11114
G1 X86.413 Y54.464 E14.13385
G1 X86.086 Y55.097 E14.21916
G1 X85.993 Y55.26 E14.24163
G1 X85.702 Y55.728 E14.30762
G1 X85.574 Y55.916 E14.33485
G1 X85.176 Y56.457 E14.41527
G1 X85.055 Y56.609 E14.43853
G1 X84.678 Y57.043 E14.50736
G1 X84.542 Y57.187 E14.53108
G1 X84.066 Y57.655 E14.61101
G1 X83.913 Y57.795 E14.63584
G1 X83.36 Y58.255 E14.72197
G1 X82.76 Y58.683 E14.81022
G1 X82.354 Y58.939 E14.86769
G1 X82.054 Y59.095 E14.90817
G1 X81.483 Y59.336 E14.98238
G1 X80.884 Y59.636 E15.0626
G1 X80.317 Y60.016 E15.14432
G1 X79.802 Y60.464 E15.22606
G1 X79.349 Y60.974 E15.30773
G1 X78.962 Y61.537 E15.38953
G1 X78.65 Y62.145 E15.47136
G1 X78.417 Y62.786 E15.55302
G1 X78.267 Y63.455 E15.63512
G1 X78.2 Y64.288 E15.73518
G1 X78.198 Y87.053 E18.46098
G1 X78.181 Y87.434 E18.50664
G1 X78.103 Y88.318 E18.6129
G1 X77.982 Y89.041 E18.70068
G1 X77.825 Y89.696 E18.78133
G1 X77.779 Y89.861 E18.80184
G1 X77.534 Y90.595 E18.89449
G1 X77.272 Y91.223 E18.97596
G1 X77.204 Y91.371 E18.99547
G1 X76.939 Y91.891 E19.06535
G1 X76.856 Y92.039 E19.08567
G1 X76.505 Y92.609 E19.16582
G1 X76.385 Y92.787 E19.19152
G1 X75.963 Y93.355 E19.27625
G1 X75.513 Y93.881 E19.35913
G1 X74.993 Y94.408 E19.44778
G1 X74.845 Y94.545 E19.47193
G1 X74.348 Y94.968 E19.55007
G1 X74.209 Y95.077 E19.57122
G1 X73.745 Y95.413 E19.63982
G1 X73.588 Y95.518 E19.66243
G1 X73.034 Y95.857 E19.7402
G1 X72.872 Y95.948 E19.76245
G1 X72.341 Y96.217 E19.83372
G1 X72.193 Y96.285 E19.85322
G1 X71.578 Y96.538 E19.93285
G1 X71.4 Y96.604 E19.95558
G1 X70.853 Y96.782 E20.02446
G1 X70.694 Y96.826 E20.04421
G1 X70.027 Y96.985 E20.12631
G1 X69.868 Y97.017 E20.14573
G1 X69.304 Y97.105 E20.21408
G1 X69.124 Y97.126 E20.23578
G1 X68.343 Y97.186 E20.32957
G1 X67.952 Y97.2 E20.37642
G1 X21.953 Y97.198 E25.88418
G1 X21.557 Y97.18 E25.93164
G1 X20.843 Y97.122 E26.01741
G1 X20.67 Y97.101 E26.03828
G1 X19.957 Y96.981 E26.12485
G1 X19.124 Y96.774 E26.22763
G1 X18.404 Y96.533 E26.31854
G1 X17.626 Y96.203 E26.41973
G1 X17.096 Y95.932 E26.491
G1 X16.961 Y95.856 E26.50955
G1 X16.385 Y95.501 E26.59057
G1 X16.213 Y95.385 E26.61541
G1 X15.645 Y94.963 E26.70013
G1 X15.117 Y94.511 E26.78336
G1 X14.997 Y94.4 E26.80293
G1 X14.592 Y93.993 E26.87168
G1 X14.455 Y93.845 E26.89583
G1 X14.03 Y93.345 E26.9744
G1 X13.919 Y93.204 E26.99589
G1 X13.583 Y92.74 E27.06448
G1 X13.481 Y92.587 E27.0865
G1 X13.143 Y92.034 E27.1641
G1 X13.048 Y91.865 E27.18731
G1 X12.783 Y91.341 E27.25762
G1 X12.711 Y91.185 E27.2782
G1 X12.462 Y90.578 E27.35675
G1 X12.391 Y90.386 E27.38126
G1 X12.216 Y89.847 E27.44912
G1 X12.174 Y89.694 E27.46812
G1 X12.011 Y89.011 E27.55219
G1 X11.984 Y88.875 E27.5688
G1 X11.894 Y88.296 E27.63895
G1 X11.875 Y88.127 E27.65932
G1 X11.815 Y87.356 E27.75191
G1 X11.8 Y86.964 E27.79888
G1 X11.8 Y64.297 E30.51295
G1 X11.758 Y63.629 E30.59309
G1 X11.629 Y62.958 E30.67491
G1 X11.416 Y62.309 E30.7567
G1 X11.124 Y61.692 E30.83843
G1 X10.756 Y61.117 E30.92017
G1 X10.318 Y60.593 E31.00194
G1 X9.818 Y60.129 E31.08362
G1 X9.257 Y59.727 E31.16626
G1 X8.371 Y59.283 E31.28492
G1 X8.221 Y59.224 E31.30422
G1 X7.886 Y59.063 E31.34872
G1 X7.376 Y58.766 E31.41939
G1 X7.194 Y58.649 E31.44529
G1 X6.66 Y58.267 E31.52391
G1 X6.497 Y58.14 E31.54865
G1 X6.054 Y57.766 E31.61807
G1 X5.923 Y57.647 E31.63926
G1 X5.441 Y57.169 E31.72054
G1 X5.289 Y57.006 E31.74723
G1 X4.925 Y56.584 E31.81396
G1 X4.806 Y56.434 E31.83688
G1 X4.412 Y55.896 E31.91673
G1 X4.284 Y55.707 E31.94406
G1 X3.908 Y55.086 E32.03098
G1 X3.575 Y54.439 E32.11811
G1 X3.494 Y54.264 E32.1412
G1 X3.277 Y53.743 E32.20878
G1 X3.207 Y53.556 E32.23269
G1 X2.993 Y52.898 E32.31554
G1 X2.939 Y52.707 E32.3393
G1 X2.802 Y52.139 E32.40926
G1 X2.774 Y51.998 E32.42647
G1 X2.66 Y51.279 E32.51364
G1 X2.64 Y51.112 E32.53378
G1 X2.592 Y50.503 E32.60693
G1 X2.587 Y50.352 E32.62502
G1 X2.588 Y49.653 E32.70871
G1 X2.597 Y49.435 E32.73484
G1 X2.644 Y48.862 E32.80368
G1 X2.665 Y48.688 E32.82466
G1 X2.81 Y47.827 E32.92921
G1 X2.995 Y47.092 E33.01996
G1 X3.279 Y46.25 E33.12636
G1 X3.579 Y45.551 E33.21743
G1 X3.914 Y44.903 E33.30478
G1 X4.008 Y44.738 E33.32752
G1 X4.298 Y44.272 E33.39324
G1 X4.426 Y44.084 E33.42047
G1 X4.824 Y43.543 E33.50089
G1 X4.948 Y43.387 E33.52475
G1 X5.322 Y42.957 E33.59298
G1 X5.458 Y42.813 E33.6167
G1 X5.934 Y42.345 E33.69663
G1 X6.087 Y42.205 E33.72146
G1 X6.64 Y41.745 E33.80759
G1 X7.353 Y41.243 E33.912
G1 X7.646 Y41.061 E33.9533
G1 X7.946 Y40.905 E33.99378
G1 X8.517 Y40.664 E34.06799
G1 X9.116 Y40.364 E34.14821
G1 X9.683 Y39.984 E34.22994
G1 X10.198 Y39.536 E34.31167
G1 X10.651 Y39.026 E34.39334
G1 X11.038 Y38.463 E34.47515
G1 X11.35 Y37.855 E34.55697
G1 X11.583 Y37.214 E34.63864
G1 X11.733 Y36.545 E34.72073
G1 X11.8 Y35.712 E34.82079
G1 X11.802 Y12.947 E37.54659
G1 X11.819 Y12.566 E37.59226
G1 X11.897 Y11.682 E37.69852
G1 X12.018 Y10.96 E37.78617
G1 X12.18 Y10.287 E37.86906
G1 X12.406 Y9.571 E37.95896
G1 X12.467 Y9.404 E37.98024
G1 X12.797 Y8.626 E38.08143
G1 X13.061 Y8.109 E38.15094
G1 X13.144 Y7.961 E38.17126
G0 F2400 X12.8 Y8.62
G1 F900 X12.8 Y91.374 E48.07993
G0 F2400 X14.4 Y93.78
G1 F900 X14.4 Y6.22 E58.56406
G0 F2400 X16 Y4.771
G1 F900 X16 Y95.226 E69.39482
G0 F2400 X17.6 Y96.189
G1 F900 X17.6 Y3.812 E80.45572
G0 F2400 X19.2 Y3.204
G1 F900 X19.2 Y96.792 E91.66162
G0 F2400 X20.8 Y97.116
G1 F900 X20.8 Y2.883 E102.94475
G0 F2400 X22.4 Y2.801
G1 F900 X22.4 Y97.198 E114.24751
G0 F2400 X24 Y97.198
G1 F900 X24 Y2.801 E125.55028
G0 F2400 X25.6 Y2.801
G1 F900 X25.6 Y97.198 E136.85304
G0 F2400 X27.2 Y97.198
G1 F900 X27.2 Y2.801 E148.15581
G0 F2400 X28.8 Y2.801
G1 F900 X28.8 Y97.198 E159.45857
G0 F2400 X30.4 Y97.198
G1 F900 X30.4 Y2.801 E170.76134
G0 F2400 X32 Y2.801
G1 F900 X32 Y97.198 E182.0641
G0 F2400 X33.6 Y97.198
G1 F900 X33.6 Y2.801 E193.36687
G0 F2400 X35.2 Y2.801
G1 F900 X35.2 Y97.198 E204.66963
G0 F2400 X36.8 Y97.198
G1 F900 X36.8 Y2.801 E215.9724
G0 F2400 X38.4 Y2.801
G1 F900 X38.4 Y97.198 E227.27516
G0 F2400 X40 Y97.198
G1 F900 X40 Y2.801 E238.57793
G0 F2400 X41.6 Y2.801
G1 F900 X41.6 Y97.198 E249.88069
G0 F2400 X43.2 Y97.198
G1 F900 X43.2 Y2.801 E261.18346
G0 F2400 X44.8 Y2.801
G1 F900 X44.8 Y97.198 E272.48622
G0 F2400 X46.4 Y97.199
G1 F900 X46.4 Y2.8 E283.78923
G0 F2400 X48 Y2.8
G1 F900 X48 Y97.199 E295.09223
G0 F2400 X49.6 Y97.199
G1 F900 X49.6 Y2.8 E306.39524
G0 F2400 X51.2 Y2.8
G1 F900 X51.2 Y97.199 E317.69824
G0 F2400 X52.8 Y97.199
G1 F900 X52.8 Y2.8 E329.00124
G0 F2400 X54.4 Y2.8
G1 F900 X54.4 Y97.199 E340.30425
G0 F2400 X56 Y97.199
G1 F900 X56 Y2.8 E351.60725
G0 F2400 X57.6 Y2.8
G1 F900 X57.6 Y97.199 E362.91026
G0 F2400 X59.2 Y97.199
G1 F900 X59.2 Y2.8 E374.21326
G0 F2400 X60.8 Y2.8
G1 F900 X60.8 Y97.199 E385.51627
G0 F2400 X62.4 Y97.199
G1 F900 X62.4 Y2.8 E396.81927
G0 F2400 X64 Y2.8
G1 F900 X64 Y97.199 E408.12228
G0 F2400 X65.6 Y97.199
G1 F900 X65.6 Y2.8 E419.42528
G0 F2400 X67.2 Y2.8
G1 F900 X67.2 Y97.199 E430.72829
G0 F2400 X68.8 Y97.151
G1 F900 X68.8 Y2.85 E442.01956
G0 F2400 X70.4 Y3.107
G1 F900 X70.4 Y96.897 E453.24964
G0 F2400 X72 Y96.365
G1 F900 X72 Y3.636 E464.35269
G0 F2400 X73.6 Y4.49
G1 F900 X73.6 Y95.51 E475.2511
G0 F2400 X75.2 Y94.199
G1 F900 X75.2 Y5.798 E485.83593
G0 F2400 X76.8 Y7.871
G1 F900 X76.8 Y92.13 E495.9248
G0 F2400 X78.4 Y62.862
G1 F900 X78.4 Y37.131 E499.00574
G0 F2400 X80 Y39.703
G1 F900 X80 Y60.292 E501.471
G0 F2400 X81.6 Y59.287
G1 F900 X81.6 Y40.703 E503.69618
G0 F2400 X83.2 Y41.633
G1 F900 X83.2 Y58.37 E505.70021
G0 F2400 X84.8 Y56.903
G1 F900 X84.8 Y43.098 E507.35317
G0 F2400 X86.4 Y45.513
G1 F900 X86.4 Y54.49 E508.42805
G0 F2400 X11.2 Y61.852
G1 F900 X11.2 Y38.147 E511.2664
G0 F2400 X9.6 Y40.039
G1 F900 X9.6 Y59.972 E513.65311
G0 F2400 X8 Y59.117
G1 F900 X8 Y40.882 E515.8365
G0 F2400 X6.4 Y41.944
G1 F900 X6.4 Y58.058 E517.76593
G0 F2400 X4.8 Y56.425
G1 F900 X4.8 Y43.575 E519.30455
G0 F2400 X3.2 Y46.484
G1 F900 X3.2 Y53.534 E520.14869
G0 F2400 X3.908 Y55.085
;TIME_ELAPSED:303.175254
;LAYER:-5
G0 X3.908 Y55.085 Z0.66
;TYPE:SUPPORT
G1 F900 X4.284 Y55.706 E520.22113
G1 X4.412 Y55.895 E520.2439
G1 X4.806 Y56.433 E520.31044
G1 X4.924 Y56.583 E520.32948
G1 X5.289 Y57.005 E520.38516
G1 X5.44 Y57.168 E520.40733
G1 X5.922 Y57.646 E520.47506
G1 X6.054 Y57.764 E520.49273
G1 X6.496 Y58.139 E520.55057
G1 X6.66 Y58.266 E520.57126
G1 X7.194 Y58.648 E520.63677
G1 X7.375 Y58.765 E520.65828
G1 X7.886 Y59.062 E520.71725
G1 X8.22 Y59.223 E520.75425
G1 X8.37 Y59.282 E520.77033
G1 X3.626 Y54.537 E521.43983
G1 X3.575 Y54.438 E521.45095
G1 X3.494 Y54.263 E521.47019
G1 X3.277 Y53.742 E521.5265
G1 X3.206 Y53.555 E521.54646
G1 X2.992 Y52.897 E521.6155
G1 X2.938 Y52.706 E521.63531
G1 X2.853 Y52.35 E521.67183
G1 X47.7 Y97.198 E528.00029
G1 X49.114 Y97.198 E528.14138
G1 X2.606 Y50.689 E534.70423
G1 X2.591 Y50.502 E534.72295
G1 X2.587 Y50.35 E534.73812
G1 X2.588 Y49.651 E534.80787
G1 X2.597 Y49.434 E534.82954
G1 X2.609 Y49.278 E534.84515
G1 X50.529 Y97.198 E541.60718
G1 X51.943 Y97.198 E541.74827
G1 X2.775 Y48.03 E548.68641
G1 X2.81 Y47.825 E548.70716
G1 X2.994 Y47.091 E548.78267
G1 X3.058 Y46.899 E548.80286
G1 X53.358 Y97.198 E555.90066
G1 X54.772 Y97.198 E556.04175
G1 X3.442 Y45.868 E563.28497
G1 X3.579 Y45.55 E563.31952
G1 X3.905 Y44.917 E563.39056
G1 X56.186 Y97.198 E570.76798
G1 X57.6 Y97.198 E570.90907
G1 X4.45 Y44.048 E578.40911
G1 X4.823 Y43.542 E578.47183
G1 X4.948 Y43.386 E578.49178
G1 X5.066 Y43.25 E578.50974
G1 X59.015 Y97.198 E586.12246
G1 X60.429 Y97.198 E586.26355
G1 X5.753 Y42.522 E593.97892
G1 X5.934 Y42.344 E594.00425
G1 X6.086 Y42.204 E594.02487
G1 X6.503 Y41.858 E594.07894
G1 X61.843 Y97.198 E601.88801
G1 X63.257 Y97.198 E602.0291
G1 X7.322 Y41.263 E609.92213
G1 X7.353 Y41.242 E609.92587
G1 X7.646 Y41.06 E609.96029
G1 X7.945 Y40.904 E609.99394
G1 X8.249 Y40.776 E610.02685
G1 X64.671 Y97.198 E617.9886
G1 X66.086 Y97.198 E618.12979
G1 X9.196 Y40.309 E626.15751
G1 X9.682 Y39.983 E626.21591
G1 X10.005 Y39.704 E626.25849
G1 X67.5 Y97.198 E634.37159
G1 X67.952 Y97.199 E634.41669
G1 X68.342 Y97.185 E634.45563
G1 X68.86 Y97.145 E634.50747
G1 X10.687 Y38.971 E642.71638
G1 X11.037 Y38.462 E642.77802
G1 X11.226 Y38.096 E642.81912
G1 X70.097 Y96.967 E651.12645
G1 X70.693 Y96.825 E651.18759
G1 X70.852 Y96.78 E651.20407
G1 X71.208 Y96.664 E651.24143
G1 X11.614 Y37.07 E659.65079
G1 X11.733 Y36.543 E659.7047
G1 X11.79 Y35.831 E659.77597
G1 X72.226 Y96.268 E668.30421
G1 X72.341 Y96.216 E668.31681
G1 X72.871 Y95.947 E668.37611
G1 X73.033 Y95.856 E668.39465
G1 X73.154 Y95.781 E668.40886
G1 X11.8 Y34.427 E677.06657
G1 X11.8 Y33.013 E677.20766
G1 X74.007 Y95.221 E685.98581
G1 X74.209 Y95.076 E686.01062
G1 X74.348 Y94.967 E686.02824
G1 X74.79 Y94.589 E686.08628
G1 X11.8 Y31.599 E694.97484
G1 X11.8 Y30.184 E695.11603
G1 X75.504 Y93.889 E704.10543
G1 X75.512 Y93.88 E704.10663
G1 X75.962 Y93.354 E704.1757
G1 X76.142 Y93.113 E704.20571
G1 X11.8 Y28.77 E713.28514
G1 X11.8 Y27.357 E713.42612
G1 X76.713 Y92.269 E722.58598
G1 X76.855 Y92.038 E722.61304
G1 X76.938 Y91.889 E722.63005
G1 X77.204 Y91.37 E722.68825
G1 X77.211 Y91.353 E722.69008
G1 X11.8 Y25.943 E731.92021
G1 X11.8 Y24.528 E732.0614
G1 X77.617 Y90.345 E741.34889
G1 X77.778 Y89.86 E741.39988
G1 X77.824 Y89.695 E741.41697
G1 X77.933 Y89.246 E741.46307
G1 X11.8 Y23.114 E750.79508
G1 X11.8 Y21.7 E750.93617
G1 X78.128 Y88.028 E760.29577
G1 X78.181 Y87.433 E760.35537
G1 X78.198 Y87.052 E760.39343
G1 X78.198 Y86.684 E760.43015
G1 X11.801 Y20.286 E769.79955
G1 X11.801 Y18.872 E769.94064
G1 X78.198 Y85.27 E779.31004
G1 X78.198 Y83.855 E779.45123
G1 X11.801 Y17.458 E788.82057
G1 X11.801 Y16.044 E788.96166
G1 X78.198 Y82.441 E798.33099
G1 X78.198 Y81.027 E798.47208
G1 X11.801 Y14.63 E807.84141
G1 X11.801 Y13.215 E807.9826
G1 X78.198 Y79.613 E817.35201
G1 X78.198 Y78.198 E817.4932
G1 X11.878 Y11.878 E826.85167
G1 X11.896 Y11.681 E826.8714
G1 X12.017 Y10.959 E826.94445
G1 X12.085 Y10.671 E826.97398
G1 X78.198 Y76.784 E836.30324
G1 X78.199 Y75.371 E836.44423
G1 X12.404 Y9.575 E845.72868
G1 X12.466 Y9.404 E845.74683
G1 X12.796 Y8.625 E845.83125
G1 X12.82 Y8.577 E845.8366
G1 X78.199 Y73.957 E855.06236
G1 X78.199 Y72.542 E855.20354
G1 X13.324 Y7.667 E864.35811
G1 X13.494 Y7.39 E864.39054
G1 X13.613 Y7.213 E864.41182
G1 X13.899 Y6.828 E864.45967
G1 X78.199 Y71.128 E873.5331
G1 X78.199 Y69.714 E873.67419
G1 X14.543 Y6.057 E882.65681
G1 X14.599 Y5.996 E882.66507
G1 X15.006 Y5.591 E882.72236
G1 X15.154 Y5.455 E882.74242
G1 X15.262 Y5.363 E882.75657
G1 X78.199 Y68.3 E891.63766
G1 X78.199 Y66.885 E891.77885
G1 X16.049 Y4.735 E900.54889
G1 X16.259 Y4.583 E900.57476
G1 X16.412 Y4.48 E900.59316
G1 X16.906 Y4.179 E900.65088
G1 X78.199 Y65.471 E909.29991
G1 X78.199 Y64.288 E909.41795
G1 X78.217 Y64.075 E909.43928
G1 X17.842 Y3.7 E917.95885
G1 X18.425 Y3.459 E918.02179
