;FLAVOR:Marlin
;TIME:10835
;Filament used: 8.0111m
;Layer height: 0.2
;Generated with Cura_SteamEngine 3.6.0
M104 S200
M105
M109 S200
M82 ;absolute extrusion mode
G28 ;Home
G1 Z15.0 F6000 ;Move the platform down 15mm
;Prime the extruder
G92 E0
G1 F200 E3
G92 E0
G92 E0
G1 F1500 E-6.5
;LAYER_COUNT:138
;LAYER:-6
M107
G0 F2400 X9.262 Y22.105 Z0.36
;TYPE:SUPPORT-INTERFACE
G1 F1500 E0
G1 F900 X9.722 Y21.916 E0.05955
G1 X9.932 Y21.839 E0.08633
G1 X10.449 Y21.673 E0.15134
G1 X10.639 Y21.62 E0.17496
G1 X11.283 Y21.472 E0.25408
G1 X11.848 Y21.384 E0.32255
G1 X12.028 Y21.363 E0.34425
G1 X12.64 Y21.315 E0.41775
G1 X13.048 Y21.3 E0.46664
G1 X77.04 Y21.302 E8.12882
G1 X77.408 Y21.318 E8.17292
G1 X77.972 Y21.363 E8.24067
G1 X78.152 Y21.384 E8.26236
G1 X78.717 Y21.472 E8.33083
G1 X79.361 Y21.62 E8.40995
G1 X79.551 Y21.673 E8.43357
G1 X80.068 Y21.839 E8.49859
G1 X80.278 Y21.916 E8.52537
G1 X80.738 Y22.105 E8.58492
G1 X80.894 Y22.177 E8.60549
G1 X81.418 Y22.443 E8.67585
G1 X81.58 Y22.534 E8.6981
G1 X82.144 Y22.886 E8.7777
G1 X82.623 Y23.233 E8.84853
G1 X82.744 Y23.328 E8.86695
G1 X83.154 Y23.676 E8.93134
G1 X83.693 Y24.204 E9.02168
G1 X84.132 Y24.706 E9.10153
G1 X84.266 Y24.875 E9.12735
G1 X84.678 Y25.45 E9.21205
G1 X84.942 Y25.88 E9.27247
G1 X85.055 Y26.079 E9.29987
G1 X85.298 Y26.555 E9.36386
G1 X85.396 Y26.766 E9.39172
G1 X85.582 Y27.214 E9.4498
G1 X85.643 Y27.379 E9.47086
G1 X85.816 Y27.913 E9.53807
G1 X85.87 Y28.103 E9.56172
G1 X85.992 Y28.609 E9.62405
G1 X86.021 Y28.752 E9.64152
G1 X86.112 Y29.317 E9.71004
G1 X86.133 Y29.494 E9.73138
G1 X86.186 Y30.16 E9.81138
G1 X86.2 Y30.535 E9.85631
G1 X86.198 Y69.536 E14.52616
G1 X86.179 Y69.947 E14.57542
G1 X86.116 Y70.655 E14.66053
G1 X86.024 Y71.232 E14.73049
G1 X85.87 Y71.897 E14.81222
G1 X85.823 Y72.068 E14.83345
G1 X85.582 Y72.786 E14.92414
G1 X85.396 Y73.234 E14.98222
G1 X85.305 Y73.43 E15.00809
G1 X85.055 Y73.921 E15.07407
G1 X84.949 Y74.108 E15.09981
G1 X84.591 Y74.678 E15.1804
G1 X84.266 Y75.125 E15.24657
G1 X84.141 Y75.283 E15.2707
G1 X83.806 Y75.674 E15.33235
G1 X83.693 Y75.796 E15.35226
G1 X83.154 Y76.324 E15.4426
G1 X82.744 Y76.672 E15.50699
G1 X82.623 Y76.767 E15.52541
G1 X82.144 Y77.114 E15.59624
G1 X81.58 Y77.466 E15.67584
G1 X81.422 Y77.555 E15.69755
G1 X80.894 Y77.823 E15.76845
G1 X80.738 Y77.895 E15.78902
G1 X80.278 Y78.084 E15.84857
G1 X80.068 Y78.161 E15.87535
G1 X79.553 Y78.326 E15.9401
G1 X79.361 Y78.38 E15.96399
G1 X78.717 Y78.528 E16.04311
G1 X78.152 Y78.616 E16.11157
G1 X77.972 Y78.637 E16.13327
G1 X77.36 Y78.685 E16.20678
G1 X76.953 Y78.7 E16.25554
G1 X12.969 Y78.698 E23.91676
G1 X12.532 Y78.677 E23.96915
G1 X11.827 Y78.613 E24.05391
G1 X11.109 Y78.492 E24.14109
G1 X10.609 Y78.371 E24.20269
G1 X10.413 Y78.316 E24.22706
G1 X9.879 Y78.143 E24.29427
G1 X9.266 Y77.896 E24.37341
G1 X9.055 Y77.798 E24.40126
G1 X8.575 Y77.553 E24.46579
G1 X8.38 Y77.442 E24.49266
G1 X7.95 Y77.178 E24.55307
G1 X7.375 Y76.766 E24.63777
G1 X7.213 Y76.637 E24.66257
G1 X6.704 Y76.193 E24.74344
G1 X6.175 Y75.653 E24.83395
G1 X5.733 Y75.123 E24.91659
G1 X5.382 Y74.638 E24.98827
G1 X5.034 Y74.08 E25.06701
G1 X4.939 Y73.911 E25.09022
G1 X4.677 Y73.394 E25.15962
G1 X4.603 Y73.234 E25.18073
G1 X4.416 Y72.778 E25.23974
G1 X4.339 Y72.568 E25.26653
G1 X4.173 Y72.051 E25.33154
G1 X4.117 Y71.851 E25.35641
G1 X4.001 Y71.363 E25.41647
G1 X3.971 Y71.212 E25.4349
G1 X3.882 Y70.641 E25.5041
G1 X3.863 Y70.48 E25.52351
G1 X3.82 Y69.945 E25.58778
G1 X3.802 Y69.543 E25.63596
G1 X3.8 Y30.542 E30.3058
G1 X3.815 Y30.141 E30.35385
G1 X3.868 Y29.479 E30.43337
G1 X3.975 Y28.774 E30.51875
G1 X4.126 Y28.118 E30.59935
G1 X4.184 Y27.913 E30.62486
G1 X4.357 Y27.379 E30.69207
G1 X4.604 Y26.766 E30.7712
G1 X4.695 Y26.569 E30.79719
G1 X4.945 Y26.079 E30.86305
G1 X5.058 Y25.88 E30.89045
G1 X5.322 Y25.45 E30.95087
G1 X5.734 Y24.875 E31.03557
G1 X5.859 Y24.717 E31.05969
G1 X6.196 Y24.324 E31.12168
G1 X6.307 Y24.204 E31.14125
G1 X6.846 Y23.676 E31.23159
G1 X7.256 Y23.328 E31.29599
G1 X7.377 Y23.233 E31.31441
G1 X7.856 Y22.886 E31.38523
G1 X8.42 Y22.534 E31.46483
G1 X8.582 Y22.443 E31.48708
G1 X9.106 Y22.177 E31.55744
G1 X9.262 Y22.105 E31.57802
G0 F2400 X9.6 Y21.966
G1 F900 X9.6 Y78.03 E38.29092
G0 F2400 X11.2 Y78.507
G1 F900 X11.2 Y21.491 E45.11782
G0 F2400 X12.8 Y21.309
G1 F900 X12.8 Y78.689 E51.9883
G0 F2400 X14.4 Y78.698
G1 F900 X14.4 Y21.301 E58.86081
G0 F2400 X16 Y21.301
G1 F900 X16 Y78.698 E65.73333
G0 F2400 X17.6 Y78.698
G1 F900 X17.6 Y21.301 E72.60584
G0 F2400 X19.2 Y21.301
G1 F900 X19.2 Y78.698 E79.47836
G0 F2400 X20.8 Y78.698
G1 F900 X20.8 Y21.301 E86.35087
G0 F2400 X22.4 Y21.301
G1 F900 X22.4 Y78.698 E93.22339
G0 F2400 X24 Y78.698
G1 F900 X24 Y21.301 E100.0959
G0 F2400 X25.6 Y21.301
G1 F900 X25.6 Y78.698 E106.96842
G0 F2400 X27.2 Y78.698
G1 F900 X27.2 Y21.301 E113.84093
G0 F2400 X28.8 Y21.301
G1 F900 X28.8 Y78.698 E120.71345
G0 F2400 X30.4 Y78.698
G1 F900 X30.4 Y21.301 E127.58596
G0 F2400 X32 Y21.301
G1 F900 X32 Y78.698 E134.45848
G0 F2400 X33.6 Y78.698
G1 F900 X33.6 Y21.301 E141.33099
G0 F2400 X35.2 Y21.301
G1 F900 X35.2 Y78.698 E148.20351
G0 F2400 X36.8 Y78.698
G1 F900 X36.8 Y21.301 E155.07602
G0 F2400 X38.4 Y21.301
G1 F900 X38.4 Y78.698 E161.94854
G0 F2400 X40 Y78.698
G1 F900 X40 Y21.301 E168.82105
G0 F2400 X41.6 Y21.301
G1 F900 X41.6 Y78.698 E175.69357
G0 F2400 X43.2 Y78.698
G1 F900 X43.2 Y21.301 E182.56608
G0 F2400 X44.8 Y21.301
G1 F900 X44.8 Y78.698 E189.4386
G0 F2400 X46.4 Y78.699
G1 F900 X46.4 Y21.302 E196.31111
G0 F2400 X48 Y21.302
G1 F900 X48 Y78.699 E203.18363
G0 F2400 X49.6 Y78.699
G1 F900 X49.6 Y21.302 E210.05614
G0 F2400 X51.2 Y21.302
G1 F900 X51.2 Y78.699 E216.92866
G0 F2400 X52.8 Y78.699
G1 F900 X52.8 Y21.302 E223.80118
G0 F2400 X54.4 Y21.302
G1 F900 X54.4 Y78.699 E230.67369
G0 F2400 X56 Y78.699
G1 F900 X56 Y21.302 E237.54621
G0 F2400 X57.6 Y21.302
G1 F900 X57.6 Y78.699 E244.41872
G0 F2400 X59.2 Y78.699
G1 F900 X59.2 Y21.302 E251.29124
G0 F2400 X60.8 Y21.302
G1 F900 X60.8 Y78.699 E258.16375
G0 F2400 X62.4 Y78.699
G1 F900 X62.4 Y21.302 E265.03627
G0 F2400 X64 Y21.302
G1 F900 X64 Y78.699 E271.90878
G0 F2400 X65.6 Y78.699
G1 F900 X65.6 Y21.302 E278.7813
G0 F2400 X67.2 Y21.302
G1 F900 X67.2 Y78.699 E285.65381
G0 F2400 X68.8 Y78.699
G1 F900 X68.8 Y21.302 E292.52633
G0 F2400 X70.4 Y21.302
G1 F900 X70.4 Y78.699 E299.39884
G0 F2400 X72 Y78.699
G1 F900 X72 Y21.302 E306.27136
G0 F2400 X73.6 Y21.302
G1 F900 X73.6 Y78.699 E313.14387
G0 F2400 X75.2 Y78.699
G1 F900 X75.2 Y21.302 E320.01639
G0 F2400 X76.8 Y21.302
G1 F900 X76.8 Y78.699 E326.8889
G0 F2400 X78.4 Y78.578
G1 F900 X78.4 Y21.423 E333.73244
G0 F2400 X80 Y21.818
G1 F900 X80 Y78.183 E340.48139
G0 F2400 X81.6 Y77.454
G1 F900 X81.6 Y22.547 E347.05576
G0 F2400 X83.2 Y23.722
G1 F900 X83.2 Y76.279 E353.34875
G0 F2400 X84.8 Y74.346
G1 F900 X84.8 Y25.649 E359.17956
G0 F2400 X8 Y22.796
G1 F900 X8 Y77.208 E365.69466
G0 F2400 X6.4 Y75.882
G1 F900 X6.4 Y24.112 E371.89342
G0 F2400 X4.8 Y26.363
G1 F900 X4.8 Y73.636 E377.55372
G0 F2400 X5.488 Y74.785
;TIME_ELAPSED:222.819353
;LAYER:-5
G0 X5.488 Y74.785 Z0.66
;TYPE:SUPPORT
G1 F900 X7.704 Y77.001 E377.86642
G1 X7.375 Y76.764 E377.90688
G1 X7.212 Y76.636 E377.92756
G1 X6.704 Y76.192 E377.99488
G1 X6.175 Y75.652 E378.07031
G1 X5.732 Y75.122 E378.13923
G0 F2400 X7.704 Y77.001
G1 F900 X7.95 Y77.177 E378.16941
G1 X8.379 Y77.441 E378.21967
G1 X8.575 Y77.551 E378.2421
G1 X9.055 Y77.797 E378.29592
G1 X9.265 Y77.894 E378.319
G1 X9.878 Y78.141 E378.38494
G1 X10.412 Y78.314 E378.44095
G1 X10.439 Y78.321 E378.44374
G1 X4.175 Y72.057 E379.32765
G1 X4.116 Y71.85 E379.34913
G1 X4 Y71.362 E379.39918
G1 X3.971 Y71.211 E379.41452
G1 X3.882 Y70.639 E379.47228
G1 X3.862 Y70.479 E379.48837
G1 X3.849 Y70.317 E379.50459
G1 X12.174 Y78.643 E380.67941
G1 X12.532 Y78.676 E380.71528
G1 X12.969 Y78.697 E380.75894
G1 X13.643 Y78.697 E380.82619
G1 X3.801 Y68.855 E382.215
G1 X3.801 Y67.441 E382.35609
G1 X15.057 Y78.697 E383.94443
G1 X16.472 Y78.697 E384.08562
G1 X3.801 Y66.026 E385.87364
G1 X3.801 Y64.612 E386.01473
G1 X17.886 Y78.697 E388.00227
G1 X19.3 Y78.697 E388.14336
G1 X3.801 Y63.198 E390.33044
G1 X3.801 Y61.784 E390.47153
G1 X20.714 Y78.697 E392.85813
G1 X22.128 Y78.697 E392.99922
G1 X3.801 Y60.369 E395.58543
G1 X3.801 Y58.955 E395.72652
G1 X23.543 Y78.697 E398.51233
G1 X24.957 Y78.697 E398.65342
G1 X3.801 Y57.541 E401.63876
G1 X3.8 Y56.126 E401.77995
G1 X26.371 Y78.697 E404.96496
G1 X27.785 Y78.697 E405.10605
G1 X3.8 Y54.712 E408.49059
G1 X3.8 Y53.298 E408.63168
G1 X29.199 Y78.697 E412.21576
G1 X30.614 Y78.697 E412.35695
G1 X3.8 Y51.883 E416.14069
G1 X3.8 Y50.469 E416.28178
G1 X32.028 Y78.697 E420.26506
G1 X33.442 Y78.697 E420.40615
G1 X3.8 Y49.055 E424.58895
G1 X3.8 Y47.641 E424.73004
G1 X34.857 Y78.698 E429.11252
G1 X36.271 Y78.698 E429.25361
G1 X3.8 Y46.227 E433.83562
G1 X3.8 Y44.812 E433.97681
G1 X37.685 Y78.698 E438.75842
G1 X39.1 Y78.698 E438.89961
G1 X3.799 Y43.397 E443.88096
G1 X3.799 Y41.983 E444.02205
G1 X40.514 Y78.698 E449.20293
G1 X41.928 Y78.698 E449.34402
G1 X3.799 Y40.569 E454.72443
G1 X3.799 Y39.155 E454.86552
G1 X43.342 Y78.698 E460.44547
G1 X44.757 Y78.698 E460.58666
G1 X3.799 Y37.741 E466.3662
G1 X3.799 Y36.326 E466.50739
G1 X46.171 Y78.698 E472.48654
G1 X47.585 Y78.698 E472.62763
G1 X3.799 Y34.912 E478.80631
G1 X3.799 Y33.498 E478.9474
G1 X48.999 Y78.698 E485.3256
G1 X50.413 Y78.698 E485.46669
G1 X3.799 Y32.084 E492.04443
G1 X3.799 Y30.67 E492.18552
G1 X51.828 Y78.698 E498.96286
G1 X53.242 Y78.698 E499.10395
G1 X3.887 Y29.343 E506.06848
G1 X3.975 Y28.773 E506.12602
G1 X4.116 Y28.157 E506.18908
G1 X54.656 Y78.698 E513.32089
G1 X56.071 Y78.698 E513.46208
G1 X4.469 Y27.097 E520.74361
G1 X4.603 Y26.764 E520.77942
G1 X4.694 Y26.568 E520.80099
G1 X4.917 Y26.131 E520.84994
G1 X57.485 Y78.698 E528.26778
G1 X58.899 Y78.698 E528.40887
G1 X5.458 Y25.257 E535.94997
G1 X5.733 Y24.873 E535.9971
G1 X5.859 Y24.716 E536.01719
G1 X6.076 Y24.461 E536.0506
G1 X60.314 Y78.698 E543.70409
G1 X61.728 Y78.698 E543.84518
G1 X6.774 Y23.745 E551.59972
G1 X6.846 Y23.675 E551.60974
G1 X7.256 Y23.327 E551.6634
G1 X7.377 Y23.231 E551.67881
G1 X7.55 Y23.106 E551.7001
G1 X63.142 Y78.698 E559.54474
G1 X64.556 Y78.698 E559.68583
G1 X8.402 Y22.544 E567.60976
G1 X8.419 Y22.533 E567.61178
G1 X8.581 Y22.442 E567.63032
G1 X9.106 Y22.176 E567.68905
G1 X9.261 Y22.104 E567.7061
G1 X9.343 Y22.07 E567.71496
G1 X65.97 Y78.698 E575.70571
G1 X67.385 Y78.698 E575.8469
G1 X10.381 Y21.694 E583.89078
G1 X10.448 Y21.672 E583.89782
G1 X10.639 Y21.619 E583.91759
G1 X11.283 Y21.471 E583.98353
G1 X11.532 Y21.432 E584.00868
G1 X68.799 Y78.698 E592.0896
G1 X70.213 Y78.698 E592.23069
G1 X12.822 Y21.307 E600.32918
G1 X13.047 Y21.299 E600.35164
G1 X14.229 Y21.3 E600.46958
G1 X71.627 Y78.698 E608.56906
G1 X73.042 Y78.698 E608.71025
G1 X15.643 Y21.3 E616.8098
G1 X17.057 Y21.3 E616.95089
G1 X74.456 Y78.698 E625.05044
G1 X75.87 Y78.698 E625.19152
G1 X18.471 Y21.3 E633.29107
G1 X19.885 Y21.3 E633.43216
G1 X77.272 Y78.686 E641.53002
G1 X77.36 Y78.684 E641.5388
G1 X77.971 Y78.636 E641.59995
G1 X78.151 Y78.615 E641.61804
G1 X78.553 Y78.553 E641.65862
G1 X21.3 Y21.3 E649.73764
G1 X22.714 Y21.3 E649.87873
G1 X79.694 Y78.28 E657.91922
G1 X80.067 Y78.16 E657.95832
G1 X80.277 Y78.083 E657.98064
G1 X80.726 Y77.898 E658.02909
G1 X24.128 Y21.3 E666.01568
G1 X25.542 Y21.3 E666.15677
G1 X81.658 Y77.416 E674.07534
G1 X82.143 Y77.114 E674.13235
G1 X82.506 Y76.849 E674.1772
G1 X26.957 Y21.3 E682.01576
G1 X28.371 Y21.3 E682.15685
G1 X83.274 Y76.203 E689.90426
G1 X83.692 Y75.795 E689.96254
G1 X83.805 Y75.673 E689.97913
G1 X83.968 Y75.483 E690.00411
G1 X29.786 Y21.3 E697.64985
G1 X31.2 Y21.3 E697.79094
G1 X84.585 Y74.686 E705.32421
G0 F2400 X84.59 Y74.678
G1 F900 X84.948 Y74.108 E705.39137
G1 X85.054 Y73.921 E705.41282
G1 X85.115 Y73.802 E705.42616
G1 X32.614 Y21.3 E712.83469
G1 X34.028 Y21.3 E712.97578
G1 X85.562 Y72.834 E720.24778
G1 X85.581 Y72.786 E720.25294
G1 X85.822 Y72.067 E720.3286
G1 X85.869 Y71.897 E720.3462
G1 X85.901 Y71.759 E720.36033
G1 X35.443 Y21.3 E727.48057
G1 X36.857 Y21.3 E727.62166
G1 X86.123 Y70.567 E734.5737
G1 X86.177 Y69.947 E734.6358
G1 X86.197 Y69.536 E734.67686
G1 X86.197 Y69.227 E734.70769
G1 X38.271 Y21.3 E741.47063
G1 X39.685 Y21.3 E741.61172
G1 X86.197 Y67.812 E748.17507
G1 X86.197 Y66.398 E748.31616
G1 X41.099 Y21.3 E754.67997
G1 X42.514 Y21.3 E754.82116
G1 X86.197 Y64.984 E760.98538
G1 X86.197 Y63.57 E761.12647
G1 X43.928 Y21.3 E767.09115
G1 X45.343 Y21.301 E767.23234
G1 X86.197 Y62.156 E772.99735
G1 X86.197 Y60.741 E773.13854
G1 X46.757 Y21.301 E778.70395
G1 X48.171 Y21.301 E778.84504
G1 X86.198 Y59.328 E784.21106
G1 X86.198 Y57.914 E784.35215
G1 X49.585 Y21.301 E789.51864
G1 X51 Y21.301 E789.65983
G1 X86.198 Y56.499 E794.62665
G1 X86.198 Y55.085 E794.76774
G1 X52.414 Y21.301 E799.53502
G1 X53.828 Y21.301 E799.67611
G1 X86.198 Y53.671 E804.24387
G1 X86.198 Y52.257 E804.38496
G1 X55.242 Y21.301 E808.75318
G1 X56.656 Y21.301 E808.89427
G1 X86.198 Y50.843 E813.06297
G1 X86.199 Y49.429 E813.20406
G1 X58.071 Y21.301 E817.17322
G1 X59.485 Y21.301 E817.31431
G1 X86.199 Y48.015 E821.08395
G1 X86.199 Y46.601 E821.22504
G1 X60.899 Y21.301 E824.79514
G1 X62.314 Y21.302 E824.93633
G1 X86.199 Y45.186 E828.30669
G1 X86.199 Y43.772 E828.44778
G1 X63.728 Y21.302 E831.61861
G1 X65.142 Y21.302 E831.7597
G1 X86.199 Y42.358 E834.731
G1 X86.199 Y40.944 E834.87209
G1 X66.557 Y21.302 E837.64379
G1 X67.971 Y21.302 E837.78488
G1 X86.199 Y39.53 E840.35704
G1 X86.199 Y38.116 E840.49813
G1 X69.385 Y21.302 E842.87077
G1 X70.799 Y21.302 E843.01186
G1 X86.199 Y36.702 E845.18497
G1 X86.199 Y35.288 E845.32606
G1 X72.213 Y21.302 E847.29963
G1 X73.628 Y21.302 E847.44082
G1 X86.199 Y33.873 E849.21472
G1 X86.199 Y32.459 E849.35581
G1 X75.042 Y21.302 E850.93019
G1 X76.456 Y21.302 E851.07128
G1 X86.199 Y31.045 E852.44612
G1 X86.199 Y30.534 E852.49711
G1 X86.185 Y30.16 E852.53445
G1 X86.138 Y29.569 E852.59361
G1 X77.928 Y21.36 E853.75206
G1 X77.971 Y21.363 E853.75636
G1 X78.151 Y21.383 E853.77443
G1 X78.716 Y21.472 E853.8315
G1 X79.36 Y21.619 E853.89741
G1 X79.55 Y21.673 E853.91712
G1 X79.706 Y21.723 E853.93347
G1 X85.777 Y27.794 E854.79015
G1 X85.641 Y27.379 E854.83373
G1 X85.581 Y27.213 E854.85134
G1 X85.395 Y26.766 E854.89965
G1 X85.297 Y26.555 E854.92286
G1 X85.054 Y26.078 E854.97628
G1 X84.941 Y25.879 E854.99911
G1 X84.677 Y25.45 E855.04937
G1 X84.265 Y24.875 E855.11995
G1 X84.239 Y24.842 E855.12415
G1 X82.656 Y23.259 E855.34752
G1 X82.743 Y23.328 E855.3586
G1 X83.153 Y23.676 E855.41226
G1 X83.692 Y24.203 E855.48748
G1 X84.131 Y24.706 E855.5541
G0 F2400 X9.008 Y22.002
;TIME_ELAPSED:544.271513
;LAYER:-4
G0 X9.008 Y22.002 Z0.86
;TYPE:SUPPORT-INTERFACE
G1 F1200 X8.483 Y22.268 E855.57367
G1 X8.327 Y22.356 E855.57963
G1 X8.257 Y22.4 E855.58238
G1 X81.745 Y22.4 E858.0266
G1 X82.256 Y22.719 E858.04663
G1 X82.368 Y22.8 E858.05123
G1 X7.633 Y22.8 E860.53693
G1 X7.265 Y23.066 E860.55203
G1 X7.12 Y23.18 E860.55817
G1 X7.097 Y23.2 E860.55918
G1 X82.904 Y23.2 E863.08053
G1 X83.278 Y23.517 E863.09684
G1 X83.368 Y23.6 E863.10091
G1 X6.633 Y23.6 E865.65313
G1 X6.588 Y23.641 E865.65515
G1 X6.228 Y24 E865.67206
G1 X83.773 Y24 E868.25122
G1 X83.828 Y24.055 E868.2538
G1 X83.961 Y24.199 E868.26032
G1 X84.134 Y24.4 E868.26914
G1 X5.87 Y24.4 E870.87222
G1 X5.706 Y24.587 E870.88049
G1 X5.582 Y24.744 E870.88714
G1 X5.542 Y24.8 E870.88943
G1 X84.459 Y24.8 E873.51422
G1 X84.75 Y25.2 E873.53067
G1 X5.256 Y25.2 E876.17465
G1 X5.146 Y25.353 E876.18092
G1 X4.995 Y25.6 E876.19055
G1 X85.006 Y25.6 E878.85173
G1 X85.116 Y25.78 E878.85874
G1 X85.229 Y25.979 E878.86636
G1 X85.24 Y26 E878.86714
G1 X4.76 Y26 E881.54392
G1 X4.556 Y26.4 E881.55885
G1 X85.444 Y26.4 E884.2492
G1 X85.483 Y26.477 E884.25207
G1 X85.574 Y26.674 E884.25929
G1 X85.627 Y26.8 E884.26383
G1 X4.375 Y26.8 E886.96629
G1 X4.214 Y27.2 E886.98063
G1 X85.791 Y27.2 E889.69389
G1 X85.83 Y27.308 E889.69771
G1 X85.925 Y27.6 E889.70792
G1 X4.075 Y27.6 E892.43026
G1 X3.988 Y27.866 E892.43957
G1 X3.95 Y28 E892.44421
G1 X86.05 Y28 E895.17486
G1 X86.065 Y28.055 E895.17676
G1 X86.149 Y28.4 E895.18857
G1 X3.855 Y28.4 E897.92568
G1 X3.778 Y28.734 E897.93708
