;FLAVOR:Marlin
;TIME:7117
;Filament used: 5.59753m
;Layer height: 0.2
;Generated with Cura_SteamEngine 3.6.0
M104 S200
M105
M109 S200
M82 ;absolute extrusion mode
G28 ;Home
G1 Z15.0 F6000 ;Move the platform down 15mm
;Prime the extruder
G92 E0
G1 F200 E3
G92 E0
G92 E0
G1 F1500 E-6.5
;LAYER_COUNT:30
;LAYER:-6
M107
G0 F2400 X9.407 Y21.826 Z0.36
;TYPE:SUPPORT-INTERFACE
G1 F1500 E0
G1 F900 X9.877 Y21.645 E0.06031
G1 X10.074 Y21.578 E0.08522
G1 X10.588 Y21.425 E0.14943
G1 X10.799 Y21.37 E0.17554
G1 X11.262 Y21.271 E0.23223
G1 X11.904 Y21.175 E0.30996
G1 X12.111 Y21.153 E0.33488
G1 X12.725 Y21.111 E0.40857
G1 X13.041 Y21.1 E0.44643
G1 X76.996 Y21.101 E8.10418
G1 X77.383 Y21.116 E8.15055
G1 X77.899 Y21.153 E8.2125
G1 X78.6 Y21.247 E8.29718
G1 X79.236 Y21.379 E8.37496
G1 X80.04 Y21.612 E8.47519
G1 X80.687 Y21.863 E8.55828
G1 X81.152 Y22.079 E8.61967
G1 X81.324 Y22.167 E8.64281
G1 X81.757 Y22.407 E8.70208
G1 X82.289 Y22.744 E8.77749
G1 X82.823 Y23.135 E8.85674
G1 X83.366 Y23.593 E8.94179
G1 X83.79 Y24.007 E9.01275
G1 X84.263 Y24.546 E9.09861
G1 X84.375 Y24.686 E9.12008
G1 X84.737 Y25.182 E9.1936
G1 X85.069 Y25.702 E9.26747
G1 X85.318 Y26.145 E9.32832
G1 X85.402 Y26.308 E9.35028
G1 X85.636 Y26.814 E9.41703
G1 X85.705 Y26.98 E9.43856
G1 X85.928 Y27.593 E9.51666
G1 X86.116 Y28.246 E9.59802
G1 X86.224 Y28.743 E9.65892
G1 X86.255 Y28.915 E9.67985
G1 X86.326 Y29.416 E9.74043
G1 X86.346 Y29.601 E9.76272
G1 X86.389 Y30.22 E9.83701
G1 X86.4 Y30.52 E9.87296
G1 X86.399 Y69.519 E14.54256
G1 X86.389 Y69.822 E14.57886
G1 X86.349 Y70.398 E14.64799
G1 X86.254 Y71.103 E14.73317
G1 X86.225 Y71.268 E14.75323
G1 X86.089 Y71.866 E14.82666
G1 X85.936 Y72.386 E14.89156
G1 X85.889 Y72.528 E14.90947
G1 X85.659 Y73.132 E14.98686
G1 X85.355 Y73.784 E15.073
G1 X85.052 Y74.328 E15.14756
G1 X84.675 Y74.905 E15.23008
G1 X84.37 Y75.32 E15.29175
G1 X84.251 Y75.469 E15.31458
G1 X83.79 Y75.996 E15.39842
G1 X83.39 Y76.39 E15.46565
G1 X82.977 Y76.745 E15.53086
G1 X82.834 Y76.859 E15.55275
G1 X82.29 Y77.258 E15.63353
G1 X81.712 Y77.623 E15.71538
G1 X81.136 Y77.93 E15.79354
G1 X80.517 Y78.208 E15.87478
G1 X79.911 Y78.431 E15.9521
G1 X79.226 Y78.626 E16.03738
G1 X78.769 Y78.725 E16.09337
G1 X78.586 Y78.758 E16.11563
G1 X78.09 Y78.828 E16.17561
G1 X77.922 Y78.846 E16.19584
G1 X77.29 Y78.889 E16.27169
G1 X76.974 Y78.9 E16.30955
G1 X12.937 Y78.899 E23.97712
G1 X12.634 Y78.888 E24.01342
G1 X12.148 Y78.856 E24.07174
G1 X11.951 Y78.835 E24.09546
G1 X11.237 Y78.726 E24.18194
G1 X10.557 Y78.567 E24.26556
G1 X9.9 Y78.363 E24.34793
G1 X9.273 Y78.118 E24.42853
G1 X8.635 Y77.813 E24.51321
G1 X8.083 Y77.498 E24.58931
G1 X7.555 Y77.147 E24.66522
G1 X7.163 Y76.855 E24.72375
G1 X6.658 Y76.427 E24.80301
G1 X6.549 Y76.326 E24.8208
G1 X6.214 Y75.996 E24.87711
G1 X6.095 Y75.87 E24.89786
G1 X5.712 Y75.427 E24.96798
G1 X5.301 Y74.882 E25.04971
G1 X4.942 Y74.324 E25.12916
G1 X4.852 Y74.171 E25.15041
G1 X4.562 Y73.622 E25.22475
G1 X4.298 Y73.027 E25.3027
G1 X4.114 Y72.534 E25.3657
G1 X4.058 Y72.367 E25.38679
G1 X3.874 Y71.721 E25.46722
G1 X3.781 Y71.296 E25.51931
G1 X3.747 Y71.107 E25.54231
G1 X3.672 Y70.591 E25.60474
G1 X3.654 Y70.42 E25.62533
G1 X3.609 Y69.744 E25.70645
G1 X3.6 Y69.461 E25.74035
G1 X3.6 Y30.53 E30.40181
G1 X3.611 Y30.201 E30.44123
G1 X3.659 Y29.563 E30.51783
G1 X3.746 Y28.905 E30.59731
G1 X3.872 Y28.29 E30.67247
G1 X4.063 Y27.612 E30.75682
G1 X4.275 Y27.021 E30.83199
G1 X4.36 Y26.819 E30.85824
G1 X4.583 Y26.337 E30.92183
G1 X4.677 Y26.154 E30.94646
G1 X5.019 Y25.556 E31.02894
G1 X5.366 Y25.032 E31.1042
G1 X5.744 Y24.538 E31.17868
G1 X6.204 Y24.013 E31.26225
G1 X6.618 Y23.608 E31.3316
G1 X7.041 Y23.244 E31.39842
G1 X7.209 Y23.111 E31.42408
G1 X7.638 Y22.796 E31.4878
G1 X8.171 Y22.449 E31.56396
G1 X8.671 Y22.168 E31.63263
G1 X9.241 Y21.897 E31.7082
G1 X9.407 Y21.826 E31.72982
G0 F2400 X9.6 Y21.751
G1 F900 X9.6 Y78.245 E38.49421
G0 F2400 X11.2 Y78.717
G1 F900 X11.2 Y21.284 E45.37104
G0 F2400 X12.8 Y21.108
G1 F900 X12.8 Y78.894 E52.29013
G0 F2400 X14.4 Y78.899
G1 F900 X14.4 Y21.101 E59.21066
G0 F2400 X16 Y21.101
G1 F900 X16 Y78.899 E66.13119
G0 F2400 X17.6 Y78.899
G1 F900 X17.6 Y21.101 E73.05172
G0 F2400 X19.2 Y21.101
G1 F900 X19.2 Y78.899 E79.97225
G0 F2400 X20.8 Y78.899
G1 F900 X20.8 Y21.101 E86.89278
G0 F2400 X22.4 Y21.101
G1 F900 X22.4 Y78.899 E93.81331
G0 F2400 X24 Y78.899
G1 F900 X24 Y21.101 E100.73384
G0 F2400 X25.6 Y21.101
G1 F900 X25.6 Y78.899 E107.65437
G0 F2400 X27.2 Y78.899
G1 F900 X27.2 Y21.101 E114.5749
G0 F2400 X28.8 Y21.101
G1 F900 X28.8 Y78.899 E121.49542
G0 F2400 X30.4 Y78.899
G1 F900 X30.4 Y21.101 E128.41595
G0 F2400 X32 Y21.101
G1 F900 X32 Y78.899 E135.33648
G0 F2400 X33.6 Y78.899
G1 F900 X33.6 Y21.101 E142.25701
G0 F2400 X35.2 Y21.101
G1 F900 X35.2 Y78.899 E149.17754
G0 F2400 X36.8 Y78.899
G1 F900 X36.8 Y21.101 E156.09807
G0 F2400 X38.4 Y21.101
G1 F900 X38.4 Y78.899 E163.0186
G0 F2400 X40 Y78.899
G1 F900 X40 Y21.101 E169.93913
G0 F2400 X41.6 Y21.101
G1 F900 X41.6 Y78.899 E176.85966
G0 F2400 X43.2 Y78.899
G1 F900 X43.2 Y21.101 E183.78019
G0 F2400 X44.8 Y21.101
G1 F900 X44.8 Y78.899 E190.70072
G0 F2400 X46.4 Y78.899
G1 F900 X46.4 Y21.101 E197.62125
G0 F2400 X48 Y21.101
G1 F900 X48 Y78.899 E204.54178
G0 F2400 X49.6 Y78.899
G1 F900 X49.6 Y21.101 E211.46231
G0 F2400 X51.2 Y21.101
G1 F900 X51.2 Y78.899 E218.38284
G0 F2400 X52.8 Y78.899
G1 F900 X52.8 Y21.101 E225.30337
G0 F2400 X54.4 Y21.101
G1 F900 X54.4 Y78.899 E232.2239
G0 F2400 X56 Y78.899
G1 F900 X56 Y21.101 E239.14442
G0 F2400 X57.6 Y21.101
G1 F900 X57.6 Y78.899 E246.06495
G0 F2400 X59.2 Y78.899
G1 F900 X59.2 Y21.101 E252.98548
G0 F2400 X60.8 Y21.101
G1 F900 X60.8 Y78.899 E259.90601
G0 F2400 X62.4 Y78.899
G1 F900 X62.4 Y21.101 E266.82654
G0 F2400 X64 Y21.101
G1 F900 X64 Y78.899 E273.74707
G0 F2400 X65.6 Y78.899
G1 F900 X65.6 Y21.101 E280.6676
G0 F2400 X67.2 Y21.101
G1 F900 X67.2 Y78.899 E287.58813
G0 F2400 X68.8 Y78.899
G1 F900 X68.8 Y21.101 E294.50866
G0 F2400 X70.4 Y21.101
G1 F900 X70.4 Y78.899 E301.42919
G0 F2400 X72 Y78.899
G1 F900 X72 Y21.101 E308.34972
G0 F2400 X73.6 Y21.101
G1 F900 X73.6 Y78.899 E315.27025
G0 F2400 X75.2 Y78.899
G1 F900 X75.2 Y21.101 E322.19078
G0 F2400 X76.8 Y21.101
G1 F900 X76.8 Y78.899 E329.11131
G0 F2400 X78.4 Y78.785
G1 F900 X78.4 Y21.221 E336.00382
G0 F2400 X80 Y21.601
G1 F900 X80 Y78.399 E342.80461
G0 F2400 X81.6 Y77.683
G1 F900 X81.6 Y22.32 E349.43358
G0 F2400 X83.2 Y23.453
G1 F900 X83.2 Y76.554 E355.79171
G0 F2400 X84.8 Y74.714
G1 F900 X84.8 Y25.281 E361.71064
G0 F2400 X8 Y22.56
G1 F900 X8 Y77.442 E368.28202
G0 F2400 X6.4 Y76.179
G1 F900 X6.4 Y23.821 E374.55118
G0 F2400 X4.8 Y25.938
G1 F900 X4.8 Y74.072 E380.31458
G0 F2400 X4.828 Y74.124
;TIME_ELAPSED:224.310501
;LAYER:-5
G0 X4.828 Y74.124 Z0.66
;TYPE:SUPPORT
G1 F900 X8.356 Y77.653 E380.81249
G1 X8.082 Y77.496 E380.844
G1 X7.555 Y77.146 E380.90712
G1 X7.162 Y76.854 E380.95598
G1 X6.657 Y76.426 E381.02203
G1 X6.549 Y76.325 E381.03678
G1 X6.214 Y75.995 E381.0837
G1 X6.095 Y75.869 E381.101
G1 X5.712 Y75.425 E381.15951
G1 X5.3 Y74.881 E381.2276
G1 X4.941 Y74.323 E381.2938
G1 X4.852 Y74.169 E381.31155
G0 F2400 X8.356 Y77.653
G1 F900 X8.634 Y77.812 E381.3435
G1 X9.272 Y78.116 E381.41402
G1 X9.9 Y78.362 E381.48132
G1 X10.557 Y78.566 E381.54996
G1 X10.722 Y78.604 E381.56686
G1 X3.887 Y71.769 E382.53135
G1 X3.873 Y71.72 E382.53644
G1 X3.78 Y71.295 E382.57985
G1 X3.746 Y71.105 E382.5991
G1 X3.672 Y70.589 E382.65112
G1 X3.654 Y70.419 E382.66818
G1 X3.632 Y70.1 E382.70008
G1 X12.403 Y78.871 E383.93776
G1 X12.633 Y78.886 E383.96076
G1 X12.936 Y78.898 E383.99102
G1 X13.844 Y78.898 E384.08162
G1 X3.599 Y68.653 E385.5273
G1 X3.599 Y67.239 E385.66839
G1 X15.258 Y78.898 E387.3136
G1 X16.672 Y78.898 E387.45469
G1 X3.599 Y65.825 E389.29943
G1 X3.599 Y64.411 E389.44052
G1 X18.087 Y78.898 E391.48486
G1 X19.501 Y78.898 E391.62595
G1 X3.599 Y62.996 E393.8699
G1 X3.599 Y61.582 E394.01099
G1 X20.915 Y78.898 E396.45446
G1 X22.329 Y78.898 E396.59555
G1 X3.599 Y60.168 E399.23856
G1 X3.599 Y58.754 E399.37965
G1 X23.743 Y78.898 E402.22218
G1 X25.158 Y78.898 E402.36337
G1 X3.599 Y57.339 E405.40558
G1 X3.599 Y55.925 E405.54667
G1 X26.572 Y78.898 E408.78841
G1 X27.986 Y78.898 E408.9295
G1 X3.599 Y54.511 E412.37077
G1 X3.599 Y53.097 E412.51185
G1 X29.4 Y78.898 E416.15265
G1 X30.815 Y78.898 E416.29384
G1 X3.599 Y51.683 E420.13425
G1 X3.599 Y50.268 E420.27543
G1 X32.229 Y78.898 E424.31544
G1 X33.643 Y78.898 E424.45653
G1 X3.599 Y48.854 E428.69606
G1 X3.599 Y47.44 E428.83715
G1 X35.057 Y78.898 E433.27621
G1 X36.471 Y78.898 E433.4173
G1 X3.599 Y46.026 E438.0559
G1 X3.599 Y44.612 E438.19699
G1 X37.886 Y78.898 E443.03518
G1 X39.3 Y78.898 E443.17627
G1 X3.599 Y43.197 E448.21407
G1 X3.599 Y41.783 E448.35516
G1 X40.714 Y78.898 E453.59248
G1 X42.128 Y78.898 E453.73357
G1 X3.599 Y40.369 E459.17043
G1 X3.599 Y38.955 E459.31152
G1 X43.542 Y78.898 E464.94791
G1 X44.957 Y78.898 E465.0891
G1 X3.599 Y37.541 E470.92509
G1 X3.599 Y36.126 E471.06628
G1 X46.371 Y78.898 E477.10187
G1 X47.785 Y78.898 E477.24296
G1 X3.599 Y34.712 E483.47808
G1 X3.599 Y33.298 E483.61917
G1 X49.199 Y78.898 E490.05382
G1 X50.613 Y78.898 E490.19491
G1 X3.599 Y31.884 E496.8291
G1 X3.599 Y30.529 E496.9643
G1 X3.601 Y30.471 E496.97009
G1 X52.028 Y78.898 E503.80366
G1 X53.442 Y78.898 E503.94475
G1 X3.71 Y29.166 E510.96247
G1 X3.745 Y28.904 E510.98885
G1 X3.871 Y28.289 E511.05149
G1 X3.954 Y27.995 E511.08197
G1 X54.856 Y78.898 E518.26486
G1 X56.27 Y78.898 E518.40595
G1 X4.309 Y26.937 E525.73821
G1 X4.36 Y26.817 E525.75122
G1 X4.582 Y26.336 E525.80408
G1 X4.676 Y26.153 E525.82461
G1 X4.772 Y25.985 E525.84392
G1 X57.685 Y78.898 E533.31051
G1 X59.099 Y78.898 E533.4516
G1 X5.312 Y25.111 E541.04153
G1 X5.366 Y25.03 E541.05124
G1 X5.743 Y24.537 E541.11317
G1 X5.934 Y24.318 E541.14216
G1 X60.513 Y78.898 E548.84392
G1 X61.927 Y78.898 E548.98501
G1 X6.628 Y23.598 E556.78837
G1 X7.04 Y23.243 E556.84263
G1 X7.208 Y23.11 E556.86401
G1 X7.408 Y22.964 E556.88872
G1 X63.341 Y78.898 E564.78154
G1 X64.756 Y78.898 E564.92273
G1 X8.257 Y22.399 E572.89535
G1 X8.671 Y22.167 E572.9427
G1 X9.191 Y21.919 E573.00019
G1 X66.17 Y78.898 E581.04054
G1 X67.584 Y78.898 E581.18163
G1 X10.22 Y21.534 E589.27631
G1 X10.588 Y21.423 E589.31466
G1 X10.798 Y21.368 E589.33632
G1 X11.262 Y21.27 E589.38364
G1 X11.356 Y21.256 E589.39312
G1 X68.998 Y78.898 E597.52703
G1 X70.412 Y78.898 E597.66812
G1 X12.631 Y21.117 E605.82165
G1 X12.725 Y21.109 E605.83106
G1 X13.041 Y21.099 E605.86261
G1 X14.028 Y21.1 E605.96109
G1 X71.827 Y78.898 E614.11708
G1 X73.241 Y78.898 E614.25817
G1 X15.443 Y21.1 E622.41409
G1 X16.857 Y21.1 E622.55518
G1 X74.655 Y78.898 E630.7111
G1 X76.069 Y78.898 E630.85219
G1 X18.271 Y21.1 E639.00812
G1 X19.685 Y21.1 E639.14921
G1 X77.462 Y78.876 E647.30209
G1 X77.921 Y78.845 E647.348
G1 X78.09 Y78.826 E647.36497
G1 X78.586 Y78.757 E647.41493
G1 X78.731 Y78.731 E647.42963
G1 X21.1 Y21.1 E655.56199
G1 X22.514 Y21.1 E655.70308
G1 X79.859 Y78.445 E663.79508
G1 X79.91 Y78.43 E663.80038
G1 X80.516 Y78.208 E663.86478
G1 X80.874 Y78.046 E663.90399
G1 X23.928 Y21.1 E671.93968
G1 X25.342 Y21.1 E672.08077
G1 X81.805 Y77.562 E680.04824
G1 X82.289 Y77.257 E680.10532
G1 X82.65 Y76.993 E680.14995
G1 X26.756 Y21.1 E688.03713
G1 X28.171 Y21.1 E688.17832
G1 X83.425 Y76.354 E695.97525
G1 X83.789 Y75.995 E696.02626
G1 X84.112 Y75.627 E696.07512
G1 X29.585 Y21.1 E703.76947
G1 X30.999 Y21.1 E703.91056
G1 X84.726 Y74.826 E711.49195
G1 X85.051 Y74.327 E711.55137
G1 X85.262 Y73.949 E711.59456
G1 X32.413 Y21.1 E719.05213
G1 X33.827 Y21.1 E719.19322
G1 X85.714 Y72.986 E726.51496
G1 X85.888 Y72.527 E726.56394
G1 X85.935 Y72.385 E726.57887
G1 X86.071 Y71.929 E726.62635
G1 X35.242 Y21.1 E733.79887
G1 X36.657 Y21.1 E733.94006
G1 X86.301 Y70.745 E740.94543
G1 X86.348 Y70.397 E740.98047
G1 X86.387 Y69.821 E741.03808
G1 X86.397 Y69.519 E741.06823
G1 X86.398 Y69.427 E741.07741
G1 X38.071 Y21.1 E747.89687
G1 X39.485 Y21.1 E748.03796
G1 X86.398 Y68.013 E754.65789
G1 X86.398 Y66.599 E754.79898
G1 X40.899 Y21.1 E761.21938
G1 X42.313 Y21.1 E761.36047
G1 X86.398 Y65.185 E767.58134
G1 X86.398 Y63.771 E767.72243
G1 X43.728 Y21.1 E773.7437
G1 X45.142 Y21.1 E773.88479
G1 X86.398 Y62.356 E779.70646
G1 X86.398 Y60.942 E779.84754
G1 X46.556 Y21.1 E785.46968
G1 X47.97 Y21.1 E785.61077
G1 X86.398 Y59.528 E791.03338
G1 X86.398 Y58.114 E791.17447
G1 X49.385 Y21.1 E796.39747
G1 X50.799 Y21.1 E796.53856
G1 X86.398 Y56.7 E801.56203
G1 X86.398 Y55.285 E801.70322
G1 X52.213 Y21.1 E806.5271
G1 X53.627 Y21.1 E806.66819
G1 X86.398 Y53.871 E811.29253
G1 X86.398 Y52.457 E811.43362
G1 X55.041 Y21.1 E815.85843
G1 X56.456 Y21.101 E815.99962
G1 X86.398 Y51.043 E820.22476
G1 X86.399 Y49.629 E820.36585
G1 X57.871 Y21.101 E824.39146
G1 X59.285 Y21.101 E824.53255
G1 X86.399 Y48.215 E828.35862
G1 X86.399 Y46.801 E828.49971
G1 X60.699 Y21.101 E832.12626
G1 X62.113 Y21.101 E832.26735
G1 X86.399 Y45.387 E835.69437
G1 X86.399 Y43.972 E835.83556
G1 X63.527 Y21.101 E839.06297
G1 X64.942 Y21.101 E839.20416
G1 X86.399 Y42.558 E842.23198
G1 X86.399 Y41.144 E842.37307
G1 X66.356 Y21.101 E845.20135
G1 X67.77 Y21.101 E845.34244
G1 X86.399 Y39.73 E847.97119
G1 X86.399 Y38.315 E848.11238
G1 X69.184 Y21.101 E850.54153
G1 X70.598 Y21.101 E850.68262
G1 X86.399 Y36.901 E852.91224
G1 X86.399 Y35.487 E853.05333
G1 X72.013 Y21.101 E855.08335
G1 X73.427 Y21.101 E855.22444
G1 X86.399 Y34.073 E857.05493
G1 X86.399 Y32.659 E857.19602
G1 X74.841 Y21.101 E858.82698
G1 X76.255 Y21.101 E858.96807
G1 X86.399 Y31.244 E860.39943
G1 X86.399 Y30.519 E860.47177
G1 X86.388 Y30.22 E860.50162
G1 X86.358 Y29.789 E860.54473
G1 X77.708 Y21.139 E861.76534
G1 X77.898 Y21.153 E861.78435
G1 X78.599 Y21.247 E861.85492
G1 X79.235 Y21.378 E861.91972
G1 X79.413 Y21.43 E861.93822
G1 X86.07 Y28.087 E862.87759
G1 X85.927 Y27.592 E862.929
G1 X85.704 Y26.98 E862.994
G1 X85.635 Y26.814 E863.01193
G1 X85.4 Y26.307 E863.06769
G1 X85.317 Y26.145 E863.08586
G1 X85.067 Y25.701 E863.1367
G1 X85.013 Y25.616 E863.14675
G1 X81.887 Y22.49 E863.58786
G1 X82.288 Y22.744 E863.63522
G1 X82.822 Y23.135 E863.70126
G1 X83.365 Y23.593 E863.77214
G1 X83.788 Y24.006 E863.83113
G1 X84.262 Y24.545 E863.90275
G1 X84.374 Y24.685 E863.92064
G1 X84.736 Y25.182 E863.98199
G0 F2400 X10.661 Y21.2
;TIME_ELAPSED:549.578953
;LAYER:-4
G0 X10.661 Y21.2 Z0.86
;TYPE:SUPPORT-INTERFACE
G1 F1200 X10.533 Y21.233 E863.98639
G1 X10.001 Y21.39 E864.00484
G1 X9.819 Y21.452 E864.01123
G1 X9.446 Y21.6 E864.02458
G1 X80.581 Y21.6 E866.39054
G1 X80.591 Y21.604 E866.3909
G1 X80.758 Y21.674 E866.39692
G1 X81.229 Y21.893 E866.41419
G1 X81.421 Y21.991 E866.42136
G1 X81.438 Y22 E866.422
G1 X8.562 Y22 E868.84587
G1 X8.075 Y22.273 E868.86444
G1 X7.88 Y22.4 E868.87218
G1 X82.121 Y22.4 E871.34144
G1 X82.409 Y22.583 E871.35279
G1 X82.706 Y22.8 E871.36503
G1 X7.294 Y22.8 E873.87324
G1 X7.084 Y22.954 E873.8819
G1 X6.916 Y23.087 E873.88903
G1 X6.785 Y23.2 E873.89478
G1 X83.218 Y23.2 E876.43695
G1 X83.497 Y23.44 E876.4492
G1 X83.661 Y23.6 E876.45682
G1 X6.34 Y23.6 E879.02852
G1 X6.049 Y23.885 E879.04207
G1 X5.949 Y24 E879.04714
G1 X84.057 Y24 E881.64502
G1 X84.402 Y24.4 E881.66259
G1 X5.598 Y24.4 E884.28362
G0 F2400 X5.591 Y24.407
G1 F1200 X5.292 Y24.8 E884.30005
G1 X84.706 Y24.8 E886.94137
G1 X84.835 Y24.971 E886.94849
G1 X84.986 Y25.2 E886.95761
G1 X5.011 Y25.2 E889.61759
G1 X4.85 Y25.446 E889.62737
G1 X4.763 Y25.6 E889.63325
G1 X85.238 Y25.6 E892.30986
G1 X85.466 Y26 E892.32518
G1 X4.534 Y26 E895.01699
G1 X4.505 Y26.05 E895.01891
G1 X4.404 Y26.246 E895.02624
G1 X4.335 Y26.4 E895.03186
G1 X85.665 Y26.4 E897.7369
G1 X85.824 Y26.744 E897.74951
G1 X85.848 Y26.8 E897.75153
G1 X4.154 Y26.8 E900.46869
G1 X4.093 Y26.935 E900.47361
G1 X3.995 Y27.2 E900.48301
G1 X85.999 Y27.2 E903.21048
G1 X86.12 Y27.535 E903.22232
G1 X86.139 Y27.6 E903.22457
G1 X3.862 Y27.6 E905.96112
G1 X3.741 Y28 E905.97502
G1 X86.253 Y28 E908.71938
G1 X86.313 Y28.21 E908.72664
G1 X86.355 Y28.4 E908.73311
G1 X3.647 Y28.4 E911.48399
G1 X3.574 Y28.726 E911.49511
G1 X3.563 Y28.8 E911.49759
G1 X86.438 Y28.8 E914.25403
G1 X86.453 Y28.886 E914.25693
G1 X86.498 Y29.2 E914.26748
G1 X3.503 Y29.2 E917.02791
G1 X3.48 Y29.348 E917.03289
